<?xml version="1.0" encoding="UTF-8"?>
<map version="1.10" tiledversion="1.11.2" orientation="orthogonal" renderorder="right-down" width="20" height="15" tilewidth="32" tileheight="32" infinite="0" nextlayerid="14" nextobjectid="165">
 <tileset firstgid="1" source="tileset_ebene3.tsx"/>
 <tileset firstgid="852" source="props_and_items_ebene2.tsx"/>
 <tileset firstgid="1380" source="Beartrap.tsx"/>
 <tileset firstgid="1384" source="ExplosionEffect.tsx"/>
 <layer id="3" name="floor" width="20" height="15">
  <data encoding="csv">
72,72,72,72,72,72,72,72,72,72,72,72,72,72,72,72,72,72,72,72,
72,72,107,109,109,107,72,72,72,72,72,72,72,107,109,109,107,72,72,72,
72,72,107,184,184,107,72,72,72,72,72,72,72,107,184,184,107,72,72,72,
72,72,107,184,184,107,72,72,72,72,72,72,72,107,184,184,107,72,72,72,
72,72,107,184,184,107,72,72,72,72,72,72,72,107,184,184,107,72,72,72,
72,72,107,184,184,107,72,72,72,72,72,72,72,107,184,184,107,72,72,72,
72,72,107,184,184,107,72,72,72,72,72,72,72,107,184,184,107,72,72,72,
72,72,107,107,107,107,72,72,72,72,72,72,72,107,107,107,107,72,72,72,
72,72,72,72,72,72,72,72,72,72,72,72,72,72,72,72,72,72,72,72,
72,72,72,72,72,72,72,72,72,72,72,72,72,72,72,72,72,72,72,72,
72,72,72,72,72,72,72,72,72,72,72,72,72,72,72,72,72,72,72,72,
72,72,72,72,72,72,72,72,72,72,72,72,72,72,72,72,72,72,72,72,
72,72,72,72,72,72,72,72,72,72,72,72,72,72,72,72,72,72,72,72,
72,72,72,72,72,72,72,72,72,72,72,72,72,72,72,72,72,72,72,72,
72,72,72,72,72,72,72,72,72,72,72,72,72,72,72,72,72,72,72,72
</data>
 </layer>
 <layer id="13" name="floorDecoration" width="20" height="15">
  <data encoding="csv">
0,0,0,0,0,0,0,0,0,0,0,0,0,0,0,0,0,0,0,0,
0,0,0,0,0,0,0,0,0,0,0,0,0,0,0,0,877,0,0,0,
0,0,0,0,0,0,0,0,0,0,0,0,0,877,0,0,0,0,0,0,
0,876,0,0,0,0,876,0,0,0,0,0,0,0,0,0,0,0,0,0,
0,0,0,0,0,877,0,0,0,0,0,876,0,0,0,0,877,0,0,0,
0,0,0,0,0,0,0,0,0,0,0,0,0,0,0,0,0,0,0,0,
0,0,0,0,0,0,0,0,0,0,0,0,0,877,0,0,0,0,0,0,
0,0,0,0,0,0,0,0,0,0,0,0,876,0,0,0,0,0,0,0,
0,0,0,0,876,0,0,0,0,0,0,0,0,0,876,0,0,0,0,0,
0,0,0,0,0,0,0,0,0,0,0,0,0,0,0,0,0,0,0,0,
0,0,0,0,0,0,0,0,0,0,0,0,0,0,0,0,0,0,0,0,
0,0,0,0,0,0,0,0,0,0,0,0,0,0,0,0,0,0,0,0,
0,0,0,0,0,0,0,0,0,0,0,0,0,0,0,0,0,0,0,0,
0,0,0,0,0,0,0,0,0,0,0,0,0,0,0,0,0,0,0,0,
0,0,0,0,0,0,0,0,0,0,0,0,0,0,0,0,0,0,0,0
</data>
 </layer>
 <layer id="1" name="walls" width="20" height="15">
  <data encoding="csv">
3,6,6,6,6,6,6,6,6,0,6,6,6,6,6,6,6,0,6,9,
76,0,0,0,0,0,0,0,0,0,0,0,0,0,0,0,0,0,0,306,
76,0,0,0,0,0,0,0,0,0,0,0,0,0,0,0,0,0,0,306,
76,0,0,0,0,0,0,0,0,0,0,0,0,0,0,0,0,0,0,306,
76,0,0,0,0,0,0,0,0,0,0,0,0,0,0,0,0,0,0,306,
76,0,0,0,0,0,0,0,0,0,0,0,0,0,0,0,0,0,0,306,
76,0,0,0,0,0,0,0,0,0,0,0,0,0,0,0,0,0,0,306,
76,0,0,0,0,0,0,0,0,0,0,0,0,0,0,0,0,0,0,306,
76,0,0,0,0,0,0,0,0,0,0,0,0,0,0,0,0,0,0,306,
76,0,0,0,0,0,0,0,0,0,0,0,0,0,0,0,0,0,0,306,
76,0,0,0,0,0,0,0,0,0,0,0,0,0,0,0,0,0,0,306,
76,0,0,0,0,0,0,0,0,0,0,0,0,0,0,0,0,0,0,306,
76,0,0,0,0,0,0,0,0,0,0,0,0,0,0,0,0,0,0,306,
76,0,0,0,0,0,0,0,0,0,0,0,0,0,0,0,0,0,0,306,
373,0,376,376,376,376,376,376,376,0,376,376,376,376,376,376,376,376,376,379
</data>
 </layer>
 <layer id="2" name="props" width="20" height="15">
  <data encoding="csv">
0,0,0,0,0,0,0,0,0,0,0,0,0,0,0,0,0,0,0,0,
0,0,0,0,0,1092,0,0,0,0,0,0,0,0,0,0,0,0,0,0,
0,0,1092,0,0,1116,0,0,0,0,0,0,0,0,0,0,1092,0,0,0,
0,0,1116,0,0,0,0,0,0,0,0,0,0,1092,0,0,1116,0,0,0,
0,0,0,0,0,0,0,0,0,0,0,0,0,1116,0,0,0,0,0,0,
0,0,0,0,0,0,0,0,0,0,0,0,0,0,0,0,0,0,0,0,
0,0,0,0,1092,0,0,0,0,0,0,0,0,0,0,1092,0,0,0,0,
0,0,0,0,1116,0,0,0,0,0,0,0,0,0,0,1116,0,0,0,0,
0,0,0,0,0,0,0,0,0,0,0,0,0,0,0,0,0,0,0,0,
0,0,0,0,0,0,0,0,0,0,0,0,0,0,0,0,0,0,0,0,
0,0,0,0,0,0,0,0,0,0,0,0,0,0,0,0,0,0,0,0,
0,0,0,924,0,0,0,0,0,0,0,0,0,0,0,1031,0,0,0,0,
0,0,0,0,0,0,0,0,0,0,0,0,0,0,0,0,0,0,0,0,
0,0,0,0,0,0,0,0,0,0,0,0,0,0,0,0,0,0,0,0,
0,0,0,0,0,0,0,0,0,0,0,0,0,0,0,0,0,0,0,0
</data>
 </layer>
 <objectgroup id="6" name="Collisions">
  <object id="130" x="0.817578" y="-0.817578" width="7.3582" height="479.918"/>
  <object id="131" x="1" y="472" width="639" height="8"/>
  <object id="132" x="1" y="24" width="638" height="8"/>
  <object id="133" x="630" y="1" width="9" height="480"/>
  <object id="140" x="491.333" y="365.333" width="8.66667" height="16.6667"/>
  <object id="141" x="100" y="358" width="24.6667" height="22"/>
  <object id="148" x="134.5" y="232.5" width="20" height="12.5"/>
  <object id="149" x="164" y="73" width="23.5" height="12"/>
  <object id="150" x="69.5" y="106.5" width="21" height="10.5"/>
  <object id="151" x="422" y="138" width="21" height="12.5"/>
  <object id="152" x="517.5" y="106.5" width="22" height="10.5"/>
  <object id="153" x="487" y="234" width="19.5" height="11.5"/>
 </objectgroup>
 <objectgroup id="11" name="Props"/>
 <objectgroup id="10" name="Entities" opacity="0.9">
  <object id="136" name="ChemicalTank" type="ChemicalTank" x="160.667" y="224.833" width="32" height="33"/>
  <object id="137" name="ChemicalTank" type="ChemicalTank" x="416.667" y="224.167" width="32" height="33"/>
  <object id="138" name="ChemicalTank" type="ChemicalTank" x="511.667" y="160.167" width="32" height="33"/>
  <object id="139" name="Table" type="Table" x="480.667" y="319.333" width="32" height="32"/>
  <object id="142" name="RobotSpawn" type="Spawner" x="196.667" y="266" width="25.3333" height="20">
   <ellipse/>
  </object>
  <object id="143" name="RobotSpawn" type="Spawner" x="388.667" y="265.333" width="25.3333" height="20">
   <ellipse/>
  </object>
  <object id="144" name="DoorSpawn" type="Door" x="32" y="448" width="32" height="32">
   <properties>
    <property name="DoorDirection" value="West"/>
   </properties>
  </object>
  <object id="145" name="DoorSpawn" type="Door" x="288" y="0" width="32" height="32">
   <properties>
    <property name="DoorDirection" value="North"/>
   </properties>
  </object>
  <object id="146" name="DoorSpawn" type="Door" x="544" y="0" width="32" height="32">
   <properties>
    <property name="DoorDirection" value="East"/>
   </properties>
  </object>
  <object id="147" name="DoorSpawn" type="Door" x="288" y="448" width="32" height="32">
   <properties>
    <property name="DoorDirection" value="South"/>
   </properties>
  </object>
  <object id="154" name="Beartrap" type="Trap" gid="1380" x="577.695" y="192.875" width="32" height="32">
   <properties>
    <property name="Damage" type="float" value="20"/>
    <property name="Effect" type="object" value="155"/>
    <property name="RangeLayer" type="object" value="54"/>
   </properties>
  </object>
  <object id="155" name="ExplosionEffect" gid="1384" x="529.333" y="193.791" width="128" height="128" visible="0"/>
  <object id="158" name="ScientistSpawn" type="Spawn" x="80" y="337">
   <ellipse/>
  </object>
  <object id="160" name="ScientistSpawn" type="Spawn" x="48" y="307">
   <ellipse/>
  </object>
  <object id="161" name="ScientistSpawn" type="Spawn" x="559" y="337">
   <ellipse/>
  </object>
  <object id="162" name="ScientistSpawn" type="Spawn" x="593" y="306">
   <ellipse/>
  </object>
  <object id="163" name="ScientistSpawn" type="Spawn" x="208" y="146">
   <ellipse/>
  </object>
  <object id="164" name="ScientistSpawn" type="Spawn" x="399" y="146">
   <ellipse/>
  </object>
 </objectgroup>
 <objectgroup id="8" name="Acids">
  <object id="134" x="96" y="32" width="62.6667" height="192.667"/>
  <object id="135" x="448" y="31.3333" width="63.3333" height="192.667"/>
 </objectgroup>
</map>
