<?xml version="1.0" encoding="UTF-8"?>
<map version="1.10" tiledversion="1.11.2" orientation="orthogonal" renderorder="right-down" width="20" height="15" tilewidth="32" tileheight="32" infinite="0" nextlayerid="12" nextobjectid="185">
 <tileset firstgid="1" source="tileset_ebene3.tsx"/>
 <tileset firstgid="852" source="props_and_items_ebene2.tsx"/>
 <tileset firstgid="1380" source="Beartrap.tsx"/>
 <tileset firstgid="1384" source="ExplosionEffect.tsx"/>
 <layer id="3" name="floor" width="20" height="15">
  <data encoding="csv">
72,72,72,72,72,72,72,72,72,72,72,72,72,72,72,72,72,72,72,72,
72,72,107,72,72,107,72,72,107,72,107,72,72,107,72,72,107,72,72,72,
72,72,107,72,72,107,72,72,107,72,107,72,72,107,72,72,107,72,72,72,
72,72,107,72,72,107,72,72,107,72,107,72,72,107,72,72,107,72,72,72,
72,72,107,72,72,107,72,72,107,72,107,72,72,107,72,72,107,72,72,72,
72,72,107,72,72,107,72,72,107,72,107,72,72,107,72,72,107,72,72,72,
72,72,107,72,72,107,72,72,107,72,107,72,72,107,72,72,107,72,72,72,
72,72,107,107,107,107,72,72,107,72,107,72,72,107,107,107,107,72,72,72,
72,72,107,107,107,107,107,107,107,72,107,107,107,107,107,107,107,72,72,72,
72,72,72,72,72,72,72,72,107,72,107,72,72,72,72,72,72,72,72,72,
72,72,72,72,72,72,72,72,107,72,107,72,72,72,72,72,72,72,72,72,
72,72,72,72,72,72,72,72,107,72,107,72,72,72,72,72,72,72,72,72,
72,72,72,72,72,72,72,72,107,72,107,72,72,72,72,72,72,72,72,72,
72,72,72,72,72,72,72,72,107,72,107,72,72,72,72,72,72,72,72,72,
72,72,72,72,72,72,72,72,107,72,107,72,72,72,72,72,72,72,72,72
</data>
 </layer>
 <layer id="1" name="walls" width="20" height="15">
  <data encoding="csv">
3,6,6,6,6,6,3,6,6,0,6,6,9,6,6,6,6,0,6,9,
76,0,0,0,0,0,76,0,0,0,0,0,84,0,0,0,0,0,0,306,
76,0,0,0,0,0,76,0,0,0,0,0,84,0,0,0,0,0,0,306,
76,0,0,0,0,0,76,0,0,0,0,0,84,0,0,0,0,0,0,306,
76,0,0,0,0,0,76,0,0,0,0,0,84,0,0,0,0,0,0,306,
76,0,0,0,0,0,76,0,0,0,0,0,84,0,0,0,0,0,0,306,
76,0,0,0,0,0,76,0,0,0,0,0,84,0,0,0,0,0,0,306,
76,0,0,0,0,0,76,0,0,0,0,0,84,0,0,0,0,0,0,306,
76,0,0,0,0,0,0,0,0,0,0,0,0,0,0,0,0,0,0,306,
76,0,0,0,0,0,0,0,0,0,0,0,0,0,0,0,0,0,0,306,
76,0,0,0,0,0,0,0,0,0,0,0,0,0,0,0,0,0,0,306,
76,0,0,0,0,0,0,0,0,0,0,0,0,0,0,0,0,0,0,306,
76,0,0,0,0,0,0,0,0,0,0,0,0,0,0,0,0,0,0,306,
76,0,0,0,0,0,0,0,0,0,0,0,0,0,0,0,0,0,0,306,
373,0,376,376,376,376,376,376,376,0,376,376,376,376,376,376,376,376,376,379
</data>
 </layer>
 <layer id="2" name="props" width="20" height="15">
  <data encoding="csv">
0,0,0,0,0,0,865,865,865,0,865,865,865,0,0,0,0,0,0,0,
0,0,0,0,0,0,0,0,0,0,0,0,0,0,0,0,0,0,0,0,
0,0,0,0,0,0,0,0,0,0,0,0,0,0,0,0,0,0,0,0,
0,0,0,0,0,0,0,0,0,0,0,0,0,0,0,0,0,0,0,0,
0,0,0,0,0,0,0,0,0,0,0,0,0,0,0,0,0,0,0,0,
0,0,0,0,0,0,0,0,0,0,0,0,0,0,0,0,0,0,0,0,
0,0,900,952,953,900,0,0,0,0,0,0,0,900,950,951,900,0,0,0,
0,0,1031,0,0,1031,0,0,0,0,0,0,0,1031,0,0,1031,0,0,0,
0,0,0,0,0,0,0,0,0,0,0,0,0,0,0,0,0,0,0,0,
0,0,0,0,0,0,0,0,0,0,0,0,0,0,0,0,0,0,0,0,
0,0,0,0,0,0,0,0,0,0,0,0,0,0,0,0,0,0,0,0,
0,907,907,907,907,907,907,0,0,0,0,1332,0,0,0,0,907,907,0,0,
0,0,0,0,0,0,0,0,0,0,0,0,0,0,0,0,0,0,0,0,
0,0,0,0,0,0,0,0,0,0,0,0,0,0,0,0,0,0,0,0,
0,0,0,0,0,0,0,0,0,0,0,0,0,0,0,0,0,0,0,0
</data>
 </layer>
 <objectgroup id="6" name="Collisions">
  <object id="130" x="0.817578" y="-0.817578" width="7.3582" height="479.918"/>
  <object id="131" x="1" y="472" width="639" height="8"/>
  <object id="132" x="1" y="24" width="638" height="8"/>
  <object id="133" x="630" y="1" width="9" height="480"/>
  <object id="159" x="192" y="0.666667" width="7.33333" height="255.333"/>
  <object id="160" x="407.333" y="0" width="8" height="256"/>
  <object id="161" x="68" y="204" width="22" height="16.6667"/>
  <object id="162" x="104.667" y="201.333" width="45.3333" height="19.3333"/>
  <object id="163" x="166.667" y="199.333" width="20" height="22"/>
  <object id="164" x="172.667" y="236" width="8" height="17.3333"/>
  <object id="165" x="75.3333" y="237.333" width="10" height="14"/>
  <object id="166" x="421.333" y="203.333" width="20" height="16"/>
  <object id="167" x="456.667" y="201.333" width="47.3333" height="21.3333"/>
  <object id="168" x="516.667" y="204" width="25.3333" height="15.3333"/>
  <object id="169" x="426.667" y="241.333" width="11.3333" height="10.6667"/>
  <object id="170" x="522.667" y="239.333" width="10" height="13.3333"/>
  <object id="176" x="33.3333" y="365.333" width="24.6667" height="16"/>
  <object id="177" x="68.6667" y="364.667" width="22.6667" height="16.6667"/>
  <object id="178" x="99.3333" y="362.667" width="23.3333" height="16.6667"/>
  <object id="179" x="131.333" y="363.333" width="24.6667" height="16.6667"/>
  <object id="180" x="166.667" y="364.667" width="20" height="16.6667"/>
  <object id="181" x="196.667" y="364.667" width="23.3333" height="15.3333"/>
  <object id="182" x="515.333" y="364" width="23.3333" height="16.6667"/>
  <object id="183" x="548" y="364" width="25.3333" height="15.3333"/>
 </objectgroup>
 <objectgroup id="11" name="Props"/>
 <objectgroup id="10" name="Entities">
  <object id="144" name="DoorSpawn" type="Door" x="32" y="448" width="32" height="32">
   <properties>
    <property name="DoorDirection" value="West"/>
   </properties>
  </object>
  <object id="145" name="DoorSpawn" type="Door" x="288" y="0" width="32" height="32">
   <properties>
    <property name="DoorDirection" value="North"/>
   </properties>
  </object>
  <object id="146" name="DoorSpawn" type="Door" x="544" y="0" width="32" height="32">
   <properties>
    <property name="DoorDirection" value="East"/>
   </properties>
  </object>
  <object id="147" name="DoorSpawn" type="Door" x="288" y="448" width="32" height="32">
   <properties>
    <property name="DoorDirection" value="South"/>
   </properties>
  </object>
  <object id="154" name="Beartrap" type="Trap" gid="1380" x="351.226" y="416.891" width="32" height="32">
   <properties>
    <property name="Damage" type="float" value="20"/>
    <property name="Effect" type="object" value="155"/>
    <property name="RangeLayer" type="object" value="54"/>
   </properties>
  </object>
  <object id="155" name="ExplosionEffect" gid="1384" x="302.864" y="417.807" width="128" height="128" visible="0"/>
  <object id="156" name="SnackMachine" type="SnackMachine" x="449.202" y="32.2371" width="32" height="32"/>
  <object id="157" name="Beartrap" type="Trap" gid="1380" x="447.111" y="98.24" width="32" height="32">
   <properties>
    <property name="Damage" type="float" value="20"/>
    <property name="Effect" type="object" value="158"/>
    <property name="RangeLayer" type="object" value="54"/>
   </properties>
  </object>
  <object id="158" name="ExplosionEffect" gid="1384" x="398.749" y="99.156" width="128" height="128" visible="0"/>
  <object id="171" name="RobotSpawn" type="Spawner" x="229.333" y="231.333" width="25.3333" height="20">
   <ellipse/>
  </object>
  <object id="172" name="SecuritySpawn" type="Spawn" x="431.333" y="177.333">
   <ellipse/>
  </object>
  <object id="173" name="SecuritySpawn" type="Spawn" x="174.667" y="176">
   <ellipse/>
  </object>
  <object id="174" name="ScientistSpawn" type="Spawn" x="470.667" y="240">
   <ellipse/>
  </object>
  <object id="175" name="ScientistSpawn" type="Spawn" x="112.667" y="238.667">
   <ellipse/>
  </object>
  <object id="184" name="RobotSpawn" type="Spawner" x="352" y="232" width="25.3333" height="20">
   <ellipse/>
  </object>
 </objectgroup>
 <objectgroup id="8" name="Acids"/>
</map>
