<?xml version="1.0" encoding="UTF-8"?>
<map version="1.10" tiledversion="1.11.2" orientation="orthogonal" renderorder="right-down" width="22" height="15" tilewidth="32" tileheight="32" infinite="0" nextlayerid="12" nextobjectid="253">
 <tileset firstgid="1" source="tileset_ebene2.tsx"/>
 <tileset firstgid="852" source="props_and_items_ebene2.tsx"/>
 <tileset firstgid="1380" source="Beartrap.tsx"/>
 <tileset firstgid="1384" source="ExplosionEffect.tsx"/>
 <tileset firstgid="1385" source="tileset_ebene3.tsx"/>
 <tileset firstgid="2236" source="tileset_ebene1.tsx"/>
 <layer id="3" name="floor" width="22" height="15">
  <data encoding="csv">
2307,2307,2307,2307,2307,2307,2307,2307,2307,2307,2307,2307,2307,2307,2307,2307,2307,2307,2307,2307,2307,2307,
2307,2307,2307,2307,2307,2307,2307,2307,2307,2307,2307,2307,2307,2307,2307,2307,2307,2307,2307,2307,2307,2307,
2307,2307,2307,2307,2307,2307,2307,2307,2307,2307,2307,2307,2307,2307,2307,2307,2307,2307,2307,2307,2307,2307,
2307,2307,2307,2307,2307,2307,2307,2307,2307,2307,2307,2307,2307,2307,2307,2307,2307,2307,2307,2307,2307,2307,
2307,2307,2307,2307,2307,2307,2307,2307,2307,2307,2307,2307,2307,2307,2307,2307,2307,2307,2307,2307,2307,2307,
2307,2307,2307,2307,2307,2307,2307,2307,2307,2307,2307,2307,2307,2307,2307,2307,2307,2307,2307,0,0,0,
2307,2307,2307,2307,2307,2307,2307,2307,2307,2307,2307,2307,2307,2307,2307,2307,2307,2307,2307,2307,2307,2307,
2307,2307,2307,2307,2307,2307,2307,2307,2307,2307,2307,2307,2307,2307,2307,2307,2307,2307,2307,2307,2307,2307,
2307,2307,2307,2307,2307,2307,2307,2307,2307,2307,2307,2307,2307,2307,2307,2307,2307,2307,2307,2307,2307,2307,
2307,2307,2307,2307,2307,2307,2307,2307,2307,2307,2307,2307,2307,2307,2307,2307,2307,2307,2307,2307,2307,2307,
2307,2307,2307,2307,2307,2307,2307,2307,2307,2307,2307,2307,2307,2307,2307,2307,2307,2307,2307,2307,2307,2307,
0,0,0,2307,2307,2307,2307,2307,2307,2307,2307,2307,2307,2307,2307,2307,2307,2307,2307,2307,2307,2307,
2307,2307,2307,2307,2307,2307,2307,2307,2307,2307,2307,2307,2307,2307,2307,2307,2307,2307,2307,2307,2307,2307,
2307,2307,2307,2307,2307,2307,2307,2307,2307,2307,2307,2307,2307,2307,2307,2307,2307,2307,2307,2307,2307,2307,
2307,2307,2307,2307,2307,2307,2307,2307,2307,2307,2307,2307,2307,2307,2307,2307,2307,2307,2307,2307,2307,2307
</data>
 </layer>
 <layer id="11" name="floorDecoration" width="22" height="15">
  <data encoding="csv">
0,0,0,0,0,0,0,0,0,0,0,0,0,0,0,0,0,0,0,0,0,0,
0,0,0,0,0,0,0,0,0,0,0,0,0,0,0,0,0,0,0,0,0,0,
0,0,0,0,0,0,0,0,0,0,0,0,0,0,0,0,0,0,0,0,0,0,
0,0,0,0,0,0,0,0,0,0,0,0,0,0,0,0,0,0,0,0,0,0,
0,0,0,0,0,0,0,0,0,0,0,0,0,0,0,0,0,0,0,0,0,0,
0,0,0,0,0,0,0,0,0,0,0,0,0,0,0,0,0,0,0,0,0,0,
0,0,0,0,0,0,0,0,0,0,0,0,0,0,0,0,0,0,0,0,0,0,
0,0,0,0,0,879,0,0,0,0,0,0,0,0,0,0,0,0,0,0,0,0,
0,0,0,0,0,0,0,0,0,0,0,0,0,0,0,0,0,0,0,0,0,0,
0,0,0,0,0,0,0,0,0,0,0,0,0,0,0,0,0,0,0,0,0,0,
0,0,0,0,0,0,0,0,0,0,0,0,0,0,0,0,0,0,0,0,0,0,
0,0,0,0,0,0,0,0,0,0,0,880,0,0,0,0,0,0,0,0,0,0,
0,0,0,0,0,0,0,0,0,0,0,0,0,0,0,0,0,0,0,0,0,0,
0,0,0,0,0,0,0,0,0,0,0,0,0,0,0,0,0,0,0,0,0,0,
0,0,0,0,0,0,0,0,0,0,0,0,0,0,0,0,0,0,0,0,0,0
</data>
 </layer>
 <layer id="1" name="walls" width="22" height="15">
  <data encoding="csv">
2274,2241,2241,2241,2241,2241,2241,2241,2241,0,2241,2241,2241,2241,2241,2241,2241,2241,2241,2241,2241,2244,
2533,0,0,0,0,0,0,0,0,0,0,0,0,0,0,0,0,0,0,0,0,2319,
2533,0,0,0,0,0,0,0,0,0,0,0,0,0,0,0,0,0,0,0,0,2319,
2533,0,0,0,0,0,0,0,0,0,0,0,0,0,0,0,0,0,0,0,0,2319,
2533,0,0,0,0,0,0,0,0,0,0,0,0,0,0,0,0,0,0,2274,2241,2614,
2533,0,0,0,0,0,0,0,0,0,0,0,0,0,0,0,0,0,0,2533,0,0,
2533,0,0,0,0,0,0,0,0,0,0,0,0,0,0,0,0,0,0,2608,0,2467,
2533,0,0,0,0,0,0,0,0,0,0,0,0,0,0,0,0,0,0,0,0,2319,
2533,0,0,0,0,0,0,0,0,0,0,0,0,0,0,0,0,0,0,0,0,2319,
2533,0,0,0,0,0,0,0,0,0,0,0,0,0,0,0,0,0,0,0,0,2319,
2241,0,2244,0,0,0,0,0,0,0,0,0,0,0,0,0,0,0,0,0,0,2319,
0,0,2541,0,0,0,0,0,0,0,0,0,0,0,0,0,0,0,0,0,0,2319,
2274,2241,2614,0,0,0,0,0,0,0,0,0,0,0,0,0,0,0,0,0,0,2319,
2533,0,0,0,0,0,0,0,0,0,0,0,0,0,0,0,0,0,0,0,0,2319,
2570,2611,2611,2611,2611,2611,2611,2611,2611,2611,2611,2611,0,2611,2611,2611,2611,2611,2611,2611,2611,2614
</data>
 </layer>
 <layer id="2" name="props" width="22" height="15">
  <data encoding="csv">
0,0,0,0,865,0,0,0,0,0,0,0,0,0,0,0,865,0,0,0,0,0,
0,1002,1002,852,0,0,0,0,0,0,0,0,0,1051,1051,853,0,0,0,0,0,0,
0,0,0,0,0,0,0,0,0,0,0,0,0,0,0,0,0,0,0,0,0,0,
0,0,0,0,1033,0,0,0,0,0,0,0,0,1032,0,0,0,0,0,0,0,0,
0,0,0,0,0,0,0,0,0,0,0,0,0,0,0,0,0,0,0,0,0,0,
0,0,0,0,0,0,0,0,0,0,0,0,0,0,0,0,0,0,0,0,0,0,
0,0,0,0,0,0,0,0,0,0,0,0,0,0,0,0,0,0,0,0,0,0,
0,0,0,0,0,0,0,0,0,0,0,0,0,0,0,0,0,0,0,0,0,0,
0,0,0,0,1031,0,0,0,0,0,0,0,0,1031,1055,0,0,0,0,0,0,0,
0,0,0,0,0,0,0,1032,1032,1032,1032,0,0,0,0,0,0,0,0,0,0,0,
0,0,0,0,0,0,1050,0,0,0,0,1050,0,0,0,0,0,0,0,0,0,0,
0,0,0,0,0,0,0,1031,1031,1031,1031,0,0,0,0,0,0,0,0,0,0,0,
0,0,0,0,0,0,0,0,0,0,0,0,0,0,0,0,0,0,0,0,0,0,
0,0,0,0,1005,1005,0,0,0,0,0,0,0,0,1004,1004,0,0,0,0,0,0,
0,0,0,0,0,0,0,0,0,0,0,0,0,0,0,0,0,0,0,0,0,0
</data>
 </layer>
 <objectgroup id="6" name="Collisions">
  <object id="207" x="0.5" y="0" width="7.5" height="351.5"/>
  <object id="209" x="0.5" y="340.5" width="94" height="10.5"/>
  <object id="210" x="87.5" y="340.5" width="8.5" height="75"/>
  <object id="211" x="-2" y="407.5" width="98" height="8"/>
  <object id="212" x="-1.5" y="408.5" width="9.5" height="73"/>
  <object id="213" x="-2" y="470.667" width="707.667" height="7.33333"/>
  <object id="214" x="696" y="191.5" width="8.5" height="287"/>
  <object id="215" x="607.5" y="214.5" width="97" height="10"/>
  <object id="216" x="607.5" y="128" width="8.5" height="95.5"/>
  <object id="217" x="606" y="126.5" width="97.5" height="9"/>
  <object id="218" x="694.5" y="0" width="10" height="133.5"/>
  <object id="220" x="-0.5" y="22" width="704" height="9"/>
  <object id="221" x="461.5" y="427" width="4.5" height="9.5"/>
  <object id="224" x="492.5" y="426" width="5.5" height="11"/>
  <object id="225" x="235.5" y="370.5" width="9" height="11.5"/>
  <object id="229" x="266" y="368.75" width="9" height="11.5"/>
  <object id="230" x="297.5" y="368.25" width="9" height="11.5"/>
  <object id="231" x="330" y="369.75" width="9" height="11.5"/>
  <object id="232" x="235.5" y="304.75" width="9" height="11.5"/>
  <object id="233" x="266.5" y="305.25" width="9" height="11.5"/>
  <object id="234" x="298.5" y="303.75" width="9" height="11.5"/>
  <object id="236" x="329.5" y="304.25" width="9" height="11.5"/>
  <object id="237" x="427" y="273.75" width="9" height="11.5"/>
  <object id="238" x="139.5" y="273.25" width="9" height="11.5"/>
  <object id="239" x="139" y="112.25" width="9" height="11.5"/>
  <object id="240" x="426.5" y="112.75" width="9" height="11.5"/>
  <object id="241" x="141.5" y="427.5" width="5" height="8.5"/>
  <object id="242" x="173" y="427" width="5.5" height="10"/>
  <object id="243" x="205" y="330.5" width="7.5" height="10.5"/>
  <object id="244" x="364" y="328.5" width="7" height="10.5"/>
  <object id="245" x="43.5" y="41.5" width="8.5" height="10.5"/>
  <object id="246" x="77.5" y="43" width="5" height="8"/>
  <object id="247" x="108" y="42.5" width="7" height="11.5"/>
  <object id="248" x="428.5" y="40.5" width="7" height="11.5"/>
  <object id="249" x="460.5" y="40.5" width="7" height="11.5"/>
  <object id="251" x="491.5" y="42.5" width="8.5" height="11.5"/>
 </objectgroup>
 <objectgroup id="9" name="Props"/>
 <objectgroup id="7" name="Entities">
  <object id="180" name="Table" type="Table" x="128" y="128" width="32" height="32"/>
  <object id="181" name="Table" type="Table" x="128" y="160" width="32" height="32"/>
  <object id="183" name="Table" type="Table" x="128" y="192" width="32" height="32"/>
  <object id="184" name="Table" type="Table" x="128" y="224" width="32" height="32"/>
  <object id="185" name="Table" type="Table" x="416" y="128.667" width="32" height="32"/>
  <object id="186" name="Table" type="Table" x="416" y="160.667" width="32" height="32"/>
  <object id="187" name="Table" type="Table" x="416" y="192.667" width="32" height="32"/>
  <object id="188" name="Table" type="Table" x="416" y="224.667" width="32" height="32"/>
  <object id="189" name="Table" type="Table" x="224.667" y="320" width="32" height="32"/>
  <object id="190" name="Table" type="Table" x="256.667" y="320" width="32" height="32"/>
  <object id="191" name="Table" type="Table" x="288.667" y="320" width="32" height="32"/>
  <object id="192" name="Table" type="Table" x="320.667" y="320" width="32" height="32"/>
  <object id="193" name="DoorSpawn" type="Door" x="32" y="320" width="32" height="32">
   <properties>
    <property name="DoorDirection" value="West"/>
   </properties>
  </object>
  <object id="194" name="DoorSpawn" type="Door" x="288" y="0" width="32" height="32">
   <properties>
    <property name="DoorDirection" value="North"/>
   </properties>
  </object>
  <object id="195" name="DoorSpawn" type="Door" x="640" y="192" width="32" height="32">
   <properties>
    <property name="DoorDirection" value="East"/>
   </properties>
  </object>
  <object id="196" name="DoorSpawn" type="Door" x="384" y="448" width="32" height="32">
   <properties>
    <property name="DoorDirection" value="South"/>
   </properties>
  </object>
  <object id="198" name="ScientistSpawn" type="Spawn" x="512.636" y="75.697">
   <ellipse/>
  </object>
  <object id="199" name="ScientistSpawn" type="Spawn" x="269.667" y="399.833">
   <ellipse/>
  </object>
  <object id="201" name="ScientistSpawn" type="Spawn" x="304.333" y="402.667">
   <ellipse/>
  </object>
  <object id="203" name="ScientistSpawn" type="Spawn" x="278" y="293.333">
   <ellipse/>
  </object>
  <object id="204" name="ScientistSpawn" type="Spawn" x="304" y="297.333">
   <ellipse/>
  </object>
  <object id="205" name="SnackMachine" type="SnackMachine" x="510.667" y="30.6667" width="32" height="32"/>
  <object id="206" name="SnackMachine" type="SnackMachine" x="127.333" y="30.6667" width="32" height="32"/>
 </objectgroup>
 <objectgroup id="8" name="Acids"/>
</map>
