<?xml version="1.0" encoding="UTF-8"?>
<map version="1.10" tiledversion="1.11.2" orientation="orthogonal" renderorder="right-down" width="20" height="15" tilewidth="32" tileheight="32" infinite="0" nextlayerid="11" nextobjectid="188">
 <tileset firstgid="1" source="tileset_ebene2.tsx"/>
 <tileset firstgid="852" source="props_and_items_ebene2.tsx"/>
 <tileset firstgid="1380" source="Beartrap.tsx"/>
 <tileset firstgid="1384" source="ExplosionEffect.tsx"/>
 <tileset firstgid="1385" source="tileset_ebene3.tsx"/>
 <tileset firstgid="2236" source="tileset_ebene1.tsx"/>
 <layer id="3" name="floor" width="20" height="15">
  <data encoding="csv">
0,0,0,0,0,0,0,0,0,0,0,0,0,0,0,0,0,0,0,0,
0,0,0,0,0,2306,2306,2306,2342,2307,2307,2307,2307,2307,2307,2305,2305,2307,2307,2307,
0,0,0,0,0,2306,2306,2306,2342,2307,2307,2307,2307,2307,2307,2307,2307,2307,2307,2307,
0,0,0,0,0,2306,2306,2306,2342,2307,2307,2307,2307,2307,2307,2307,2307,2307,2307,2307,
0,0,0,0,0,2307,2307,2307,2307,2307,2307,2307,2307,2307,2342,2307,2307,2307,2307,2307,
0,0,0,0,0,0,0,0,0,0,0,2307,2307,2307,2307,2307,2307,0,2307,2307,
0,0,0,0,0,0,0,0,0,0,0,2305,2307,0,0,0,0,0,0,0,
0,0,0,2307,2307,2307,2307,2307,2307,2307,2307,2307,2307,2307,2307,2307,2307,0,0,0,
2307,2307,2307,2342,2307,2307,2307,2307,2307,2305,2305,2307,2307,2307,2307,2306,2306,2306,2306,2306,
2307,2307,2307,2307,2307,2307,2307,2307,2307,2307,2307,2307,2307,2307,2307,2306,2342,2342,2342,2306,
2307,2307,2307,2307,2306,2306,2306,2306,2306,2307,2307,2307,2307,2307,2307,2306,2305,2305,2305,2306,
2307,2307,2307,2307,2306,2306,2306,2306,2306,2307,2307,2307,2307,2307,2307,2306,2342,2342,2342,2306,
2342,2305,2307,2307,2307,2307,2307,2307,2307,2307,2307,2307,2307,2307,2307,2306,2305,2305,2305,2306,
2307,2307,2307,2307,2307,2307,2307,2342,2307,2307,2307,2307,2307,2307,2307,2306,2342,2342,2342,2306,
2307,2307,2307,2307,2307,2307,2307,2307,2307,2306,2307,2307,2307,0,0,0,2307,2306,2306,2306
</data>
 </layer>
 <layer id="10" name="floorDecoration" width="20" height="15">
  <data encoding="csv">
0,0,0,0,0,0,0,0,0,0,0,0,0,0,0,0,0,0,0,0,
0,0,0,0,0,0,0,0,0,0,0,0,0,0,0,0,0,0,0,0,
0,0,0,0,0,0,0,0,0,0,0,0,0,0,0,0,0,0,0,0,
0,0,0,0,0,0,0,0,0,0,0,0,0,0,0,0,0,0,0,0,
0,0,0,0,0,0,0,0,0,0,0,0,0,0,0,0,0,0,0,0,
0,0,0,0,0,0,0,0,0,0,0,0,0,0,0,0,0,0,0,0,
0,0,0,0,0,0,0,0,0,0,0,0,0,0,0,0,0,0,0,0,
0,0,0,0,0,0,0,0,0,0,0,0,0,0,0,0,0,0,0,0,
0,0,0,0,0,0,0,0,0,0,0,0,0,0,0,0,0,0,0,0,
0,0,0,0,0,0,0,0,0,0,0,0,0,0,0,0,0,0,0,0,
0,0,0,0,0,0,0,0,0,0,0,0,0,0,0,0,0,0,0,0,
0,0,0,0,0,0,0,879,880,0,0,0,0,0,0,0,0,0,0,0,
0,0,0,0,0,0,0,0,0,0,0,0,0,0,0,877,0,0,0,0,
0,0,0,0,0,0,0,0,0,0,0,0,0,0,0,0,0,0,0,0,
0,0,0,0,0,0,0,0,0,0,0,0,0,0,0,0,0,0,0,0
</data>
 </layer>
 <layer id="1" name="walls" width="20" height="15">
  <data encoding="csv">
0,0,0,0,0,2238,2241,2241,2241,2241,0,2241,2241,2241,2241,2241,2241,2241,2241,2282,
0,0,0,0,0,2311,0,0,0,0,0,0,0,0,0,0,0,0,0,2319,
0,0,0,0,0,2311,0,0,0,0,0,0,0,0,0,0,0,0,0,2319,
0,0,0,0,0,2311,0,0,0,0,0,0,0,0,0,0,0,0,0,2319,
0,0,0,0,0,2608,2241,2241,2241,2241,2244,0,0,0,0,0,0,0,0,2319,
0,0,0,0,0,0,0,0,0,0,2319,0,0,2238,2241,2241,2241,2241,2241,2614,
0,0,0,0,0,0,0,0,0,0,2319,0,0,2311,0,0,0,0,0,0,
2274,2241,2241,2241,2611,2611,2611,2611,2611,2611,2614,0,0,2608,2611,2611,2611,0,2241,2282,
2311,0,0,0,0,0,0,0,0,0,0,0,0,0,0,0,0,0,0,2319,
2311,0,0,0,2238,2241,2241,2241,2244,0,0,0,0,0,0,0,0,0,0,2319,
2311,0,0,0,2276,0,0,0,2280,0,0,0,0,0,0,0,0,0,0,2319,
2311,0,0,0,0,0,0,0,0,0,0,0,0,0,0,0,0,0,0,2319,
2311,0,0,0,0,0,0,0,0,0,0,0,0,0,0,0,0,0,0,2319,
2311,0,0,0,0,0,0,0,0,0,0,0,0,0,0,0,0,0,0,2319,
2570,0,2241,2241,2241,2241,2241,2241,2241,2241,0,2241,2241,2241,2241,2241,2241,2241,2241,2614
</data>
 </layer>
 <layer id="2" name="props" width="20" height="15">
  <data encoding="csv">
0,0,0,0,0,0,0,859,0,866,0,866,0,0,0,0,0,0,0,0,
0,0,0,0,0,0,0,0,0,0,0,0,0,0,0,0,0,0,0,0,
0,0,0,0,0,0,0,0,0,0,0,0,0,0,0,0,0,0,0,0,
0,0,0,0,0,0,0,0,0,0,0,0,0,0,0,0,0,0,0,0,
0,0,0,0,0,0,0,0,0,0,0,0,0,0,0,0,0,0,0,0,
0,0,0,0,0,0,0,0,0,0,0,0,0,0,0,0,0,0,0,0,
0,0,0,0,0,0,0,0,0,0,0,0,0,0,0,0,0,0,0,0,
0,0,866,0,0,0,0,0,948,949,866,0,0,866,859,883,0,0,0,0,
0,0,0,0,0,0,0,0,0,0,0,0,0,0,0,0,1092,1092,0,0,
0,0,0,0,865,1082,1082,1082,865,1092,0,0,0,0,0,910,1116,1116,1116,0,
0,0,0,0,1032,1106,1106,1106,1108,1116,0,0,0,0,0,0,1092,1092,1092,0,
0,0,0,0,0,0,0,0,0,0,0,0,0,0,0,910,1116,1116,1116,0,
0,0,0,0,0,0,0,0,0,0,0,0,0,0,0,0,1092,1092,1092,0,
0,0,0,0,0,0,0,0,0,0,0,0,0,0,0,908,1116,1116,1116,0,
0,0,0,0,0,0,0,0,0,0,0,0,0,0,0,0,0,0,0,0
</data>
 </layer>
 <objectgroup id="6" name="Collisions">
  <object id="4" x="352" y="472" width="288" height="8"/>
  <object id="19" x="632" y="32" width="8" height="152"/>
  <object id="111" x="632" y="256" width="8" height="216"/>
  <object id="112" x="0" y="256" width="8" height="216"/>
  <object id="114" x="352" y="24" width="288" height="8"/>
  <object id="119" x="0" y="472" width="320" height="8"/>
  <object id="121" x="0" y="248" width="352" height="8"/>
  <object id="142" x="160" y="24" width="160" height="8"/>
  <object id="143" x="160" y="32" width="8" height="120"/>
  <object id="144" x="160" y="152" width="192" height="8"/>
  <object id="145" x="344" y="160" width="8" height="88"/>
  <object id="147" x="416" y="248" width="224" height="8"/>
  <object id="148" x="416" y="192" width="8" height="56"/>
  <object id="149" x="416" y="184" width="224" height="8"/>
  <object id="150" x="128" y="320" width="8" height="32"/>
  <object id="151" x="280" y="320" width="8" height="32"/>
  <object id="152" x="128" y="312" width="160" height="8"/>
  <object id="154" x="294" y="330" width="21" height="10"/>
  <object id="166" x="582" y="298" width="21" height="10"/>
  <object id="168" x="550" y="298" width="21" height="10"/>
  <object id="169" x="518" y="298" width="21" height="10"/>
  <object id="170" x="518" y="362" width="21" height="10"/>
  <object id="171" x="550" y="362" width="21" height="10"/>
  <object id="172" x="582" y="362" width="21" height="10"/>
  <object id="173" x="582" y="426" width="21" height="10"/>
  <object id="174" x="550" y="426" width="21" height="10"/>
  <object id="175" x="518" y="426" width="21" height="10"/>
 </objectgroup>
 <objectgroup id="9" name="Props">
  <object id="157" x="256" y="328" width="12" height="16"/>
  <object id="158" x="226" y="316" width="23" height="36"/>
  <object id="159" x="194" y="316" width="23" height="36"/>
  <object id="160" x="162" y="316" width="23" height="36"/>
  <object id="161" x="140" y="343" width="8" height="6"/>
  <object id="162" x="484" y="434" width="24" height="12"/>
  <object id="163" x="484" y="370" width="25" height="10"/>
  <object id="164" x="484" y="306" width="25" height="10"/>
 </objectgroup>
 <objectgroup id="7" name="Entities">
  <object id="53" name="Beartrap" type="Trap" gid="1380" x="449.862" y="351.584" width="32" height="32">
   <properties>
    <property name="Damage" type="float" value="20"/>
    <property name="Effect" type="object" value="58"/>
    <property name="RangeLayer" type="object" value="54"/>
   </properties>
  </object>
  <object id="58" name="ExplosionEffect" gid="1384" x="400" y="356.5" width="128" height="128"/>
  <object id="106" name="DoorSpawn" type="Door" x="32" y="448" width="32" height="32">
   <properties>
    <property name="DoorDirection" value="West"/>
   </properties>
  </object>
  <object id="107" name="DoorSpawn" type="Door" x="320" y="0" width="32" height="32">
   <properties>
    <property name="DoorDirection" value="North"/>
   </properties>
  </object>
  <object id="108" name="DoorSpawn" type="Door" x="320" y="448" width="32" height="32">
   <properties>
    <property name="DoorDirection" value="South"/>
   </properties>
  </object>
  <object id="141" name="DoorSpawn" type="Door" x="544" y="224" width="32" height="32">
   <properties>
    <property name="DoorDirection" value="East"/>
   </properties>
  </object>
  <object id="180" name="SnackMachine" type="SnackMachine" x="192" y="32" width="32" height="32"/>
  <object id="182" name="ScientistSpawn" type="Spawn" x="81.4738" y="304.982">
   <ellipse/>
  </object>
  <object id="183" name="ScientistSpawn" type="Spawn" x="423" y="283">
   <ellipse/>
  </object>
  <object id="184" name="ScientistSpawn" type="Spawn" x="546" y="91">
   <ellipse/>
  </object>
  <object id="187" name="SecuritySpawn" type="Spawn" x="223.589" y="92.8382">
   <ellipse/>
  </object>
 </objectgroup>
 <objectgroup id="8" name="Acids"/>
</map>
