<?xml version="1.0" encoding="UTF-8"?>
<map version="1.10" tiledversion="1.11.2" orientation="orthogonal" renderorder="right-down" width="22" height="15" tilewidth="32" tileheight="32" infinite="0" nextlayerid="11" nextobjectid="287">
 <tileset firstgid="1" source="tileset_ebene2.tsx"/>
 <tileset firstgid="852" source="props_and_items_ebene2.tsx"/>
 <tileset firstgid="1380" source="Beartrap.tsx"/>
 <tileset firstgid="1384" source="ExplosionEffect.tsx"/>
 <tileset firstgid="1385" source="tileset_ebene3.tsx"/>
 <tileset firstgid="2236" source="tileset_ebene1.tsx"/>
 <layer id="3" name="floor" width="22" height="15">
  <data encoding="csv">
2307,2307,2307,2307,2307,2307,2307,2307,2307,2307,2307,2307,2307,2307,2307,2307,2307,2307,2307,2307,2307,2307,
2307,2307,2307,2307,2307,2307,2307,2307,2307,2307,2307,2307,2307,2307,2307,2307,2307,2307,2307,2307,2307,2307,
2307,2307,2307,2307,2307,2307,2307,2307,2307,2307,2307,2307,2307,2307,2307,2307,2307,2307,2307,2307,2307,2307,
2307,2307,2307,2307,2307,2307,2307,2307,2307,2307,2307,2307,2307,2307,2307,2307,2307,2307,2307,2307,2307,2307,
2307,2307,2307,2307,2307,2307,2307,2307,2307,2307,2307,2307,2307,2307,2307,2307,2307,2307,2307,2307,2307,2307,
2307,2307,2307,2307,2307,2307,2307,2342,2307,2307,2307,2307,2307,2307,2342,2307,2307,2307,2307,0,0,0,
2307,2307,2307,2307,2307,2307,2307,2342,2307,2307,2307,2307,2307,2307,2342,2307,2307,2307,2307,2307,2307,2307,
2307,2307,2307,2307,2307,2307,2307,2307,2307,2307,2307,2307,2307,2307,2307,2307,2307,2307,2307,2307,2307,2307,
2307,2307,2307,2307,2307,2307,2307,2307,2307,2307,2307,2307,2307,2307,2307,2307,2307,2307,2307,2307,2307,2307,
2307,2307,2307,2307,2307,2307,2307,2307,2307,2307,2307,2307,2307,2307,2307,2307,2307,2307,2307,2307,2307,2307,
2307,2307,2307,2307,2307,2307,2307,2307,2307,2307,2307,2307,2307,2307,2307,2307,2307,2307,2307,2307,2307,2307,
0,0,0,2307,2307,2307,2307,2307,2307,2307,2307,2307,2307,2307,2307,2307,2307,2307,2307,2307,2307,2307,
2307,2307,2307,2307,2307,2307,2307,2307,2307,2307,2307,2307,2307,2307,2307,2307,2307,2307,2307,2307,2307,2307,
2307,2307,2307,2307,2307,2307,2307,2307,2307,2307,2307,2307,2307,2307,2307,2307,2307,2307,2307,2307,2307,2307,
2307,2307,2307,2307,2307,2307,2307,2307,2307,2307,2307,2307,2307,2307,2307,2307,2307,2307,2307,2307,2307,2307
</data>
 </layer>
 <layer id="1" name="walls" width="22" height="15">
  <data encoding="csv">
2274,2241,2241,2241,2241,2241,2241,2282,2241,0,2241,2241,2241,2241,2241,2241,2241,2241,2241,2241,2241,2244,
2533,0,0,0,0,0,0,2319,0,0,0,0,0,0,0,0,0,0,0,0,0,2319,
2533,0,0,0,0,0,0,2319,0,0,0,0,0,0,0,0,0,0,0,0,0,2319,
2533,0,0,0,0,0,0,2319,0,0,0,0,0,0,0,0,0,0,0,0,0,2319,
2533,0,0,0,0,0,0,2280,0,0,0,0,0,0,2359,2241,2241,2241,2241,2274,2241,2614,
2533,0,0,0,0,0,0,0,0,0,0,0,0,0,0,0,0,0,0,2533,0,0,
2533,0,0,0,0,0,0,0,0,0,0,0,0,0,0,0,0,0,0,2608,0,2467,
2238,2435,0,0,2359,2241,2241,2282,0,0,2359,2241,2241,2241,2244,0,0,0,0,0,0,2319,
2533,0,0,0,0,0,0,2541,0,0,0,0,0,0,2541,0,0,0,0,0,0,2319,
2533,0,0,0,0,0,0,2541,0,0,0,0,0,0,2541,0,0,0,0,0,0,2319,
2241,0,2244,0,0,0,0,2541,0,0,0,0,0,0,2541,0,0,0,0,0,0,2319,
0,0,2541,0,0,0,0,2541,0,0,0,0,0,0,2541,0,0,0,0,0,0,2319,
2611,2241,2614,0,0,0,0,2541,0,0,0,0,0,0,2541,0,0,0,0,0,0,2319,
2533,0,0,0,0,0,0,2541,0,0,0,0,0,0,2541,0,0,0,0,0,0,2319,
2570,2611,2611,2611,2611,2611,2611,2613,2611,2611,2611,2611,0,2611,2614,2611,2611,2611,2611,2611,2611,2614
</data>
 </layer>
 <layer id="2" name="props" width="22" height="15">
  <data encoding="csv">
0,0,0,859,0,0,0,0,0,0,0,0,0,0,0,0,0,0,0,0,0,0,
853,0,0,0,0,0,0,0,0,0,0,0,0,0,0,0,0,0,0,0,0,0,
0,0,1032,1032,0,0,0,0,0,0,0,0,0,0,0,0,0,0,0,0,0,0,
0,0,0,0,0,0,0,0,0,0,0,0,0,0,0,0,0,0,0,0,0,0,
0,0,1031,1031,0,0,0,0,0,0,0,0,0,0,0,0,0,0,0,0,0,0,
0,0,0,0,0,0,0,0,0,0,0,0,0,0,0,0,0,0,0,0,0,0,
0,0,0,0,0,0,0,0,0,0,0,0,0,0,0,0,0,0,0,0,0,0,
0,0,1190,1191,0,0,0,0,1190,1191,0,0,866,0,0,0,0,0,0,0,0,0,
0,0,0,0,0,0,924,0,0,0,0,0,1055,1008,0,0,0,0,0,0,0,0,
0,0,0,0,0,0,1031,0,0,0,0,0,0,1056,0,0,0,0,0,0,0,0,
0,0,0,0,0,0,0,0,0,0,0,0,0,0,0,0,0,0,0,0,0,0,
0,0,0,0,0,0,0,0,0,0,0,0,0,0,0,0,0,0,0,0,0,0,
0,0,0,0,0,0,0,0,0,0,0,0,0,0,0,0,0,0,0,0,0,0,
0,0,0,0,0,0,0,0,0,0,0,0,0,0,0,0,0,0,0,0,0,0,
0,0,0,0,0,0,0,0,0,0,0,0,0,0,0,0,0,0,0,0,0,0
</data>
 </layer>
 <layer id="10" name="floorDecoration" width="22" height="15">
  <data encoding="csv">
0,0,0,0,0,0,0,0,0,0,0,0,0,0,0,0,0,0,0,0,0,0,
0,0,0,0,0,0,0,0,0,0,0,0,0,0,0,0,0,0,0,0,880,0,
0,0,0,0,0,0,0,0,0,0,0,0,0,0,0,0,0,0,0,0,880,0,
0,0,0,0,0,0,0,0,0,0,0,0,0,0,0,0,0,0,0,0,0,0,
0,0,0,0,0,0,0,0,0,0,0,0,0,0,0,0,0,0,0,0,0,0,
0,0,0,0,0,0,0,0,0,0,0,0,0,0,0,0,0,0,0,0,0,0,
0,0,0,0,0,0,0,0,0,0,0,0,0,0,0,0,0,0,0,0,0,0,
0,0,0,0,0,0,0,0,0,0,0,0,0,0,0,0,0,0,0,0,0,0,
0,0,0,0,0,0,0,0,0,0,0,0,0,0,0,0,0,0,0,0,0,0,
0,0,0,0,0,0,0,0,0,0,0,0,0,0,0,0,0,0,0,0,0,0,
0,0,0,0,0,0,0,0,0,0,0,0,0,0,0,0,0,0,0,0,0,0,
0,0,0,0,0,0,0,0,0,0,0,0,0,0,0,0,0,0,0,0,0,0,
0,0,0,0,0,0,0,0,0,0,0,0,0,0,0,0,0,0,0,0,0,0,
0,0,0,0,0,0,0,0,0,0,0,0,0,0,0,0,0,0,0,0,0,0,
0,0,0,0,0,0,0,0,0,0,0,0,0,0,0,0,0,0,0,0,0,0
</data>
 </layer>
 <objectgroup id="6" name="Collisions">
  <object id="207" x="0.5" y="0" width="7.5" height="351.5"/>
  <object id="209" x="0.5" y="340.5" width="94" height="10.5"/>
  <object id="210" x="87.5" y="340.5" width="8.5" height="75"/>
  <object id="211" x="-2" y="407.5" width="98" height="8"/>
  <object id="212" x="-1.5" y="408.5" width="9.5" height="73"/>
  <object id="213" x="-2" y="470.667" width="707.667" height="7.33333"/>
  <object id="214" x="696" y="191.5" width="8.5" height="287"/>
  <object id="215" x="607.5" y="214.5" width="97" height="10"/>
  <object id="216" x="607.5" y="128" width="8.5" height="95.5"/>
  <object id="217" x="448.75" y="151" width="255.75" height="9"/>
  <object id="218" x="694.5" y="0" width="10" height="160.25"/>
  <object id="220" x="-0.5" y="22" width="704" height="9"/>
  <object id="270" x="1.09091" y="247.818" width="62.9545" height="7.45455"/>
  <object id="271" x="129.25" y="246" width="126.273" height="9.81818"/>
  <object id="272" x="321.25" y="246.25" width="158" height="9.75"/>
  <object id="273" x="246.667" y="244" width="9.33333" height="233.333"/>
  <object id="274" x="470" y="246" width="9.33333" height="232.667"/>
  <object id="275" x="247" y="21.6667" width="9" height="138.333"/>
 </objectgroup>
 <objectgroup id="9" name="Props">
  <object id="278" x="196" y="274" width="24" height="12"/>
  <object id="279" x="204" y="311" width="8" height="6"/>
  <object id="281" x="419" y="276" width="25" height="8"/>
  <object id="282" x="76" y="151" width="8" height="6"/>
  <object id="283" x="108" y="151" width="8" height="6"/>
  <object id="284" x="76" y="87" width="8" height="6"/>
  <object id="285" x="108" y="87" width="8" height="6"/>
  <object id="286" x="11" y="49" width="9" height="5"/>
 </objectgroup>
 <objectgroup id="7" name="Entities">
  <object id="253" name="Table" type="Table" x="64" y="96" width="32" height="32"/>
  <object id="254" name="Table" type="Table" x="96" y="96" width="32" height="32"/>
  <object id="255" name="SecuritySpawn" type="Spawn" x="220.667" y="136.333">
   <ellipse/>
  </object>
  <object id="260" name="ScientistSpawn" type="Spawn" x="49.3636" y="81.5455">
   <ellipse/>
  </object>
  <object id="261" name="ScientistSpawn" type="Spawn" x="46.1818" y="143.909">
   <ellipse/>
  </object>
  <object id="266" name="DoorSpawn" type="Door" x="32" y="320" width="32" height="32">
   <properties>
    <property name="DoorDirection" value="West"/>
   </properties>
  </object>
  <object id="267" name="DoorSpawn" type="Door" x="287.636" y="0.181818" width="32" height="32">
   <properties>
    <property name="DoorDirection" value="North"/>
   </properties>
  </object>
  <object id="268" name="DoorSpawn" type="Door" x="640.03" y="192" width="32" height="32">
   <properties>
    <property name="DoorDirection" value="East"/>
   </properties>
  </object>
  <object id="269" name="DoorSpawn" type="Door" x="384" y="448" width="32" height="32">
   <properties>
    <property name="DoorDirection" value="South"/>
   </properties>
  </object>
  <object id="276" name="ChemicalTank" type="ChemicalTank" x="449.333" y="32.6667" width="32" height="33"/>
  <object id="277" name="ChemicalTank" type="ChemicalTank" x="511.333" y="32.8333" width="32" height="33"/>
 </objectgroup>
 <objectgroup id="8" name="Acids"/>
</map>
