<?xml version="1.0" encoding="UTF-8"?>
<map version="1.10" tiledversion="1.11.2" orientation="orthogonal" renderorder="right-down" width="20" height="15" tilewidth="32" tileheight="32" infinite="0" nextlayerid="11" nextobjectid="156">
 <tileset firstgid="1" source="tileset_ebene3.tsx"/>
 <tileset firstgid="852" source="props_and_items_ebene2.tsx"/>
 <tileset firstgid="1380" source="Beartrap.tsx"/>
 <tileset firstgid="1384" source="ExplosionEffect.tsx"/>
 <layer id="3" name="floor" width="20" height="15">
  <data encoding="csv">
0,0,0,0,0,0,0,0,0,0,0,0,0,0,0,0,0,0,0,0,
72,72,72,72,72,72,72,72,72,72,72,72,72,72,72,72,72,72,72,72,
72,72,71,71,71,71,72,72,74,74,72,72,72,72,70,71,71,72,72,72,
72,72,71,70,71,71,72,72,72,71,71,71,72,72,72,107,107,72,72,72,
72,72,72,109,110,110,110,110,110,74,71,74,110,110,110,110,111,72,72,72,
0,0,0,146,147,147,147,147,147,74,74,74,147,147,147,147,148,0,0,0,
0,0,0,146,147,147,147,107,107,107,74,107,107,107,147,147,148,0,0,0,
0,0,0,146,147,147,147,107,107,107,71,107,107,107,147,147,148,0,0,0,
72,72,72,146,147,147,147,107,107,107,107,107,107,107,147,147,148,72,72,72,
72,72,72,146,147,147,147,110,110,74,72,74,110,110,147,147,148,72,72,72,
72,72,107,146,147,147,147,147,147,74,71,74,147,147,147,147,148,72,72,72,
72,72,107,146,147,147,147,147,147,74,71,74,147,147,147,147,148,72,72,72,
72,72,71,107,147,147,147,147,147,74,72,74,147,147,147,147,107,70,71,71,
72,72,72,72,72,72,72,72,72,71,71,72,72,72,72,72,72,71,71,71,
0,72,0,0,0,0,0,0,0,71,71,0,0,0,0,0,0,0,0,0
</data>
 </layer>
 <layer id="1" name="walls" width="20" height="15">
  <data encoding="csv">
3,6,6,6,6,6,6,6,6,6,0,6,6,6,6,6,6,6,6,9,
76,0,0,0,0,0,0,0,0,0,0,0,0,0,0,0,0,0,0,84,
76,0,0,0,0,0,0,0,0,0,0,0,0,0,0,0,0,0,0,84,
76,0,0,0,0,0,0,0,0,0,0,0,0,0,0,0,0,0,0,84,
76,0,0,0,0,0,0,0,0,0,0,0,0,0,0,0,0,0,0,84,
335,6,9,0,0,0,0,0,0,0,0,0,0,0,0,0,0,39,6,379,
0,0,84,0,0,0,0,0,0,0,0,0,0,0,0,0,0,76,0,0,
39,0,379,0,0,0,0,0,0,0,0,0,0,0,0,0,0,335,0,47,
76,0,0,0,0,0,0,0,0,0,0,0,0,0,0,0,0,0,0,84,
76,0,0,0,0,0,0,0,0,0,0,0,0,0,0,0,0,0,0,84,
76,0,0,0,0,0,0,0,0,0,0,0,0,0,0,0,0,0,0,84,
76,0,0,0,0,0,0,0,0,0,0,0,0,0,0,0,0,0,0,84,
76,0,0,0,0,0,0,0,0,0,0,0,0,0,0,0,0,0,0,84,
76,0,0,0,0,0,0,0,0,0,0,0,0,0,0,0,0,0,0,84,
373,0,6,6,6,6,6,6,6,6,0,6,6,6,6,6,6,6,6,379
</data>
 </layer>
 <layer id="2" name="props" width="20" height="15">
  <data encoding="csv">
0,948,949,0,0,0,0,0,0,0,0,0,0,0,0,0,948,949,1092,0,
0,0,0,0,0,0,0,0,0,0,0,0,0,0,0,0,0,910,1116,0,
0,0,0,0,0,0,0,0,0,0,0,0,0,0,0,0,0,0,0,0,
0,0,0,0,0,0,0,0,0,0,0,0,0,0,0,0,0,0,0,0,
0,0,0,0,0,0,0,0,0,0,0,0,0,0,0,0,0,0,0,0,
0,0,0,0,0,0,0,0,0,0,0,0,0,0,0,0,0,0,0,0,
0,0,0,0,0,0,0,0,0,0,0,0,0,0,0,0,0,0,0,0,
0,0,865,0,0,0,0,0,0,0,0,0,0,0,0,0,0,865,0,0,
0,0,0,0,0,0,0,0,0,0,0,0,0,0,0,0,0,0,0,881,
0,0,0,0,0,0,0,0,0,0,0,0,0,0,0,0,0,0,0,0,
0,0,0,0,0,0,0,0,0,0,0,0,0,0,0,0,0,0,0,0,
0,0,0,0,0,0,0,0,0,0,0,0,0,0,0,0,0,0,0,0,
0,0,0,903,0,0,0,0,0,0,0,0,0,0,0,0,0,0,0,0,
0,0,0,0,0,0,0,0,0,0,0,0,0,0,0,0,0,0,0,0,
0,0,0,0,0,0,0,0,0,0,0,0,0,0,0,0,0,0,0,0
</data>
 </layer>
 <layer id="10" name="floorDecoration" width="20" height="15">
  <data encoding="csv">
0,0,0,0,0,0,0,0,0,0,0,0,0,0,0,0,0,0,0,0,
0,0,0,0,0,0,0,0,0,0,0,0,0,0,0,0,0,0,0,0,
0,0,0,0,0,0,0,0,0,0,0,0,0,0,0,0,0,0,0,0,
0,0,879,0,0,0,0,876,877,0,0,0,0,0,0,0,0,0,0,0,
0,0,0,0,0,0,0,0,0,0,0,0,0,0,0,0,0,0,0,0,
0,0,0,0,0,0,0,0,0,0,0,0,0,0,0,0,0,0,0,0,
0,0,0,0,0,0,0,0,0,0,0,0,0,0,0,0,0,0,0,0,
0,6,0,0,0,0,0,0,0,0,0,0,0,0,0,0,0,0,0,0,
0,0,0,0,0,0,0,0,0,0,0,0,0,0,0,0,0,879,880,0,
0,0,0,0,0,0,0,0,0,0,0,0,0,0,0,0,0,0,0,0,
0,0,0,0,0,0,0,0,0,0,876,0,0,0,0,0,0,0,0,0,
0,0,0,0,0,0,0,0,0,0,0,0,0,0,0,0,0,0,0,0,
0,0,0,0,0,0,0,0,0,0,0,0,0,0,0,0,877,0,0,0,
0,0,0,0,0,0,0,0,0,0,0,0,0,0,0,0,0,0,0,0,
0,0,0,0,0,0,0,0,0,0,0,0,0,0,0,0,0,0,0,0
</data>
 </layer>
 <objectgroup id="6" name="Collisions">
  <object id="4" x="352" y="472" width="288" height="8"/>
  <object id="19" x="632" y="32" width="8" height="152"/>
  <object id="110" x="632" y="256" width="8" height="216"/>
  <object id="111" x="0" y="32" width="8" height="152"/>
  <object id="112" x="0" y="256" width="8" height="216"/>
  <object id="113" x="0" y="24" width="320" height="8"/>
  <object id="114" x="352" y="24" width="288" height="8"/>
  <object id="117" x="0" y="184" width="96" height="8"/>
  <object id="118" x="88" y="192" width="8" height="56"/>
  <object id="120" x="0" y="248" width="96" height="8"/>
  <object id="121" x="0" y="472" width="320" height="8"/>
  <object id="122" x="544" y="248" width="32" height="8"/>
  <object id="123" x="608" y="248" width="32" height="8"/>
  <object id="124" x="544" y="192" width="8" height="56"/>
  <object id="125" x="544" y="184" width="96" height="8"/>
  <object id="130" x="548" y="50" width="25" height="10"/>
  <object id="131" x="582" y="42" width="21" height="10"/>
  <object id="132" x="100" y="402" width="24" height="12"/>
 </objectgroup>
 <objectgroup id="9" name="Props"/>
 <objectgroup id="7" name="Entities">
  <object id="53" name="Beartrap" type="Trap" gid="1380" x="323.116" y="261.307" width="32" height="32">
   <properties>
    <property name="Damage" type="float" value="40"/>
    <property name="Effect" type="object" value="58"/>
    <property name="RangeLayer" type="object" value="54"/>
   </properties>
  </object>
  <object id="58" name="ExplosionEffect" gid="1384" x="271.484" y="254.047" width="128" height="128"/>
  <object id="65" name="SnackMachine" type="SnackMachine" x="576" y="352" width="32" height="32"/>
  <object id="66" name="SecuritySpawn" type="Spawn" x="65" y="383">
   <ellipse/>
  </object>
  <object id="105" name="DoorSpawn" type="Door" x="576" y="224" width="32" height="32">
   <properties>
    <property name="DoorDirection" value="East"/>
   </properties>
  </object>
  <object id="106" name="DoorSpawn" type="Door" x="32" y="448" width="32" height="32">
   <properties>
    <property name="DoorDirection" value="West"/>
   </properties>
  </object>
  <object id="107" name="DoorSpawn" type="Door" x="320" y="0" width="32" height="32">
   <properties>
    <property name="DoorDirection" value="North"/>
   </properties>
  </object>
  <object id="108" name="DoorSpawn" type="Door" x="320" y="448" width="32" height="32">
   <properties>
    <property name="DoorDirection" value="South"/>
   </properties>
  </object>
  <object id="140" name="SecuritySpawn" type="Spawn" x="587" y="87">
   <ellipse/>
  </object>
  <object id="141" name="SecuritySpawn" type="Spawn" x="43" y="85">
   <ellipse/>
  </object>
  <object id="153" name="SecuritySpawn" type="Spawn" x="577" y="415">
   <ellipse/>
  </object>
  <object id="154" name="RobotSpawn" type="Spawner" x="256" y="232" width="25.3333" height="20">
   <ellipse/>
  </object>
  <object id="155" name="RobotSpawn" type="Spawner" x="392" y="232" width="25.3333" height="20">
   <ellipse/>
  </object>
 </objectgroup>
 <objectgroup id="8" name="Acids">
  <object id="134" x="128" y="384" width="160" height="32"/>
  <object id="136" x="384" y="384" width="128" height="32"/>
  <object id="143" x="96" y="128" width="192" height="64"/>
  <object id="144" x="96" y="192" width="128" height="192"/>
  <object id="145" x="224" y="288" width="64" height="96"/>
  <object id="146" x="384" y="288" width="160" height="96"/>
  <object id="147" x="384" y="128" width="160" height="64"/>
  <object id="148" x="448" y="192" width="96" height="96"/>
  <object id="149" name="ChemicalTank" type="ChemicalTank" x="64" y="64" width="32" height="33"/>
  <object id="150" name="ChemicalTank" type="ChemicalTank" x="512" y="64" width="32" height="33"/>
  <object id="151" name="ChemicalTank" type="ChemicalTank" x="512" y="384" width="32" height="33"/>
  <object id="152" name="ChemicalTank" type="ChemicalTank" x="64" y="288" width="32" height="33"/>
 </objectgroup>
</map>
