<?xml version="1.0" encoding="UTF-8"?>
<map version="1.10" tiledversion="1.11.2" orientation="orthogonal" renderorder="right-down" width="20" height="15" tilewidth="32" tileheight="32" infinite="0" nextlayerid="11" nextobjectid="182">
	<tileset firstgid="1" source="tileset_ebene2.tsx"/>
	<tileset firstgid="852" source="props_and_items_ebene2.tsx"/>
	<tileset firstgid="1380" source="Beartrap.tsx"/>
	<tileset firstgid="1384" source="ExplosionEffect.tsx"/>
	<layer id="3" name="floor" width="20" height="15">
		<data encoding="csv">
			0,0,0,0,0,0,0,0,0,0,0,0,0,0,0,0,0,0,0,0,
			72,72,72,72,72,72,72,72,72,72,72,72,72,72,72,72,72,72,72,72,
			72,72,72,72,72,72,72,72,72,72,72,72,72,72,72,72,72,72,72,72,
			72,72,72,72,72,72,72,72,72,72,72,72,72,72,72,72,72,72,72,72,
			72,72,72,72,72,72,72,72,72,72,72,72,72,72,72,72,72,72,72,72,
			0,0,0,72,72,72,72,72,72,72,72,72,72,72,72,72,72,0,0,0,
			0,0,0,72,72,72,72,72,72,72,72,72,72,72,72,72,72,0,0,0,
			0,0,0,72,72,72,72,72,107,107,107,72,72,72,72,72,72,0,0,0,
			72,72,72,72,72,72,72,72,72,72,72,72,72,72,72,72,71,71,71,71,
			72,72,72,72,72,72,72,72,72,72,72,72,72,72,72,72,71,71,71,71,
			72,72,72,72,72,72,72,72,72,72,72,72,72,72,72,72,71,71,71,71,
			72,72,72,72,72,72,72,72,72,72,72,72,72,72,72,72,71,71,71,71,
			72,72,72,72,72,72,72,72,72,72,72,72,72,72,72,72,71,71,71,71,
			72,72,72,72,72,72,72,72,72,72,72,72,72,72,72,72,71,71,71,71,
			0,72,0,0,0,0,0,0,0,72,72,72,72,72,72,72,71,71,71,71
		</data>
	</layer>
	<layer id="10" name="floorDecoration" width="20" height="15">
		<data encoding="csv">
			0,0,0,0,0,0,0,0,0,0,0,0,0,0,0,0,0,0,0,0,
			0,0,0,0,0,0,0,0,0,0,0,0,0,0,0,0,0,0,0,0,
			0,0,0,0,0,0,0,0,0,0,0,0,0,0,0,0,0,0,0,0,
			0,0,0,0,0,0,0,0,0,0,0,0,0,0,0,0,0,0,0,0,
			0,0,0,0,0,0,0,0,0,0,0,0,0,0,0,0,0,0,0,0,
			0,0,0,0,0,0,0,0,0,0,0,0,0,0,0,0,0,0,0,0,
			0,0,0,0,0,0,0,0,0,0,0,0,0,0,0,0,0,0,0,0,
			0,0,0,0,0,0,0,0,0,0,0,0,0,0,0,0,0,0,0,0,
			0,0,0,0,0,0,0,0,0,0,0,0,0,0,0,0,0,0,0,0,
			0,0,0,0,0,0,0,0,0,0,0,0,0,0,0,0,0,0,0,0,
			0,0,0,0,0,0,0,0,0,0,0,0,0,0,0,0,0,0,0,0,
			0,0,0,0,0,0,0,0,0,0,0,0,0,0,0,0,0,0,0,0,
			0,0,879,0,0,0,0,0,0,0,0,0,0,0,0,0,0,0,0,0,
			0,0,0,0,0,0,0,0,0,0,0,0,0,0,0,0,0,0,0,0,
			0,0,0,0,0,0,0,0,0,0,0,0,0,0,0,0,0,0,0,0
		</data>
	</layer>
	<layer id="1" name="walls" width="20" height="15">
		<data encoding="csv">
			3,6,6,6,6,6,6,6,6,6,0,6,6,6,6,6,6,6,6,9,
			76,0,0,0,0,0,0,0,0,0,0,0,0,0,0,0,0,0,0,84,
			76,0,0,0,0,0,0,0,0,0,0,0,0,0,0,0,0,0,0,84,
			76,0,0,0,0,0,0,0,0,0,0,0,0,0,0,0,0,0,0,84,
			76,0,0,0,0,0,0,0,0,0,0,0,0,0,0,0,0,0,0,84,
			335,6,9,0,0,0,0,0,0,0,0,0,0,0,0,0,0,39,6,379,
			0,0,84,0,0,0,0,0,0,0,0,0,0,0,0,0,0,76,0,0,
			39,376,379,376,376,376,376,376,0,0,0,376,376,376,376,376,376,373,0,9,
			76,0,0,0,0,0,0,0,0,0,0,0,0,0,0,0,0,0,0,84,
			76,0,0,0,0,0,0,0,0,0,0,0,0,0,0,0,0,0,0,84,
			76,0,0,0,0,0,0,0,0,0,0,0,0,0,0,0,0,0,0,84,
			76,0,0,0,0,0,0,0,0,0,0,0,0,0,0,0,0,0,0,84,
			76,0,0,0,0,0,0,0,0,0,0,0,0,0,0,0,0,0,0,84,
			76,0,0,0,0,0,0,0,0,0,0,0,0,0,0,0,0,0,0,84,
			373,0,6,6,6,6,6,6,6,6,0,6,6,6,6,6,6,6,6,379
		</data>
	</layer>
	<layer id="2" name="props" width="20" height="15">
		<data encoding="csv">
			0,0,0,0,0,0,0,865,0,861,0,861,0,865,0,0,0,0,0,0,
			1032,1032,1032,1032,1032,1032,1032,1032,1032,0,0,0,1032,1032,1032,1032,1032,1032,1032,1032,
			0,0,0,0,0,0,0,0,0,0,0,0,0,0,0,0,0,0,0,0,
			0,0,0,0,0,0,0,0,0,0,0,0,0,0,0,0,0,0,0,0,
			0,0,0,0,0,0,0,0,0,0,0,0,0,0,0,0,0,0,0,0,
			0,0,0,0,0,0,0,0,0,0,0,0,0,0,0,0,0,0,0,0,
			0,0,0,0,0,0,0,0,0,0,0,0,0,0,0,0,0,0,0,0,
			0,0,0,0,0,0,0,0,0,0,0,0,0,0,0,0,0,0,0,0,
			0,0,0,0,0,0,0,0,0,0,0,0,0,0,0,0,910,0,0,0,
			0,0,0,0,0,0,0,0,0,0,0,0,0,0,0,0,0,0,0,0,
			0,0,0,0,0,0,0,0,0,0,0,0,0,0,0,0,1032,0,0,0,
			0,0,0,0,0,0,0,0,0,0,0,0,0,0,0,0,0,0,1082,0,
			0,0,879,0,0,0,0,0,0,0,0,0,0,0,0,0,0,0,1106,0,
			0,0,1053,1053,0,0,0,0,0,0,0,0,0,0,0,0,0,0,0,0,
			0,0,0,0,0,0,0,0,0,0,0,0,0,0,0,0,0,0,0,0
		</data>
	</layer>
	<objectgroup id="6" name="Collisions">
		<object id="4" x="352" y="472" width="288" height="8"/>
		<object id="19" x="632" y="32" width="8" height="152"/>
		<object id="110" x="0" y="32" width="8" height="152"/>
		<object id="111" x="632" y="256" width="8" height="216"/>
		<object id="112" x="0" y="256" width="8" height="216"/>
		<object id="113" x="0" y="24" width="320" height="8"/>
		<object id="114" x="352" y="24" width="288" height="8"/>
		<object id="115" x="544" y="184" width="96" height="8"/>
		<object id="116" x="544" y="192" width="8" height="56"/>
		<object id="117" x="352.5" y="248" width="223.5" height="8"/>
		<object id="118" x="608" y="248" width="32" height="8"/>
		<object id="119" x="0" y="472" width="320" height="8"/>
		<object id="120" x="0" y="184" width="96" height="8"/>
		<object id="121" x="0" y="248" width="256" height="8"/>
		<object id="123" x="88" y="192" width="8" height="56"/>
		<object id="151" x="579.333" y="373.333" width="21.3333" height="41.3333"/>
		<object id="152" x="524" y="338" width="8" height="11.3333"/>
		<object id="153" x="516.667" y="268.667" width="25.3333" height="15.3333"/>
		<object id="154" x="396" y="48" width="8" height="12.6667"/>
		<object id="155" x="428.667" y="48.6667" width="7.33333" height="11.3333"/>
		<object id="156" x="461.333" y="48.6667" width="6.66667" height="10.6667"/>
		<object id="157" x="491.333" y="49.3333" width="10.6667" height="11.3333"/>
		<object id="158" x="523.333" y="48.6667" width="10" height="11.3333"/>
		<object id="159" x="555.333" y="49.3333" width="10" height="10.6667"/>
		<object id="160" x="588.667" y="50" width="6.66667" height="8.66667"/>
		<object id="161" x="620" y="48.6667" width="9.33333" height="10.6667"/>
		<object id="162" x="268" y="48.6667" width="8.66667" height="13.3333"/>
		<object id="163" x="234.667" y="50" width="10" height="9.33333"/>
		<object id="164" x="203.333" y="50" width="10.6667" height="10.6667"/>
		<object id="165" x="171.333" y="48" width="9.33333" height="12"/>
		<object id="166" x="140.667" y="48" width="8" height="13.3333"/>
		<object id="167" x="108.667" y="49.3333" width="8" height="10.6667"/>
		<object id="168" x="75.3333" y="49.3333" width="7.33333" height="10.6667"/>
		<object id="169" x="44.6667" y="46.6667" width="9.33333" height="14"/>
		<object id="170" x="12.6667" y="48" width="8" height="12"/>
		<object id="172" x="75.5" y="424.5" width="9.5" height="14"/>
		<object id="173" x="106.5" y="424.5" width="10.5" height="12"/>
	</objectgroup>
	<objectgroup id="9" name="Props"/>
	<objectgroup id="7" name="Entities">
		<object id="141" name="DoorSpawn" type="Door" x="32" y="448" width="32" height="32">
			<properties>
				<property name="DoorDirection" value="West"/>
			</properties>
		</object>
		<object id="142" name="DoorSpawn" type="Door" x="320" y="448" width="32" height="32">
			<properties>
				<property name="DoorDirection" value="South"/>
			</properties>
		</object>
		<object id="143" name="DoorSpawn" type="Door" x="576" y="224" width="32" height="32">
			<properties>
				<property name="DoorDirection" value="East"/>
			</properties>
		</object>
		<object id="144" name="DoorSpawn" type="Door" x="320" y="0" width="32" height="32">
			<properties>
				<property name="DoorDirection" value="North"/>
			</properties>
		</object>
		<object id="145" name="ChemicalTank" type="ChemicalTank" x="224.667" y="192.167" width="32" height="33"/>
		<object id="146" name="ChemicalTank" type="ChemicalTank" x="386" y="189.5" width="32" height="33"/>
		<object id="147" name="ChemicalTank" type="ChemicalTank" x="224" y="255.5" width="32" height="33"/>
		<object id="148" name="ChemicalTank" type="ChemicalTank" x="385.333" y="256.833" width="32" height="33"/>
		<object id="149" name="SecuritySpawn" type="Spawn" x="364.333" y="271.667">
			<ellipse/>
		</object>
		<object id="150" name="SecuritySpawn" type="Spawn" x="365.667" y="207.667">
			<ellipse/>
		</object>
		<object id="171" name="ScientistSpawn" type="Spawn" x="552" y="384.667">
			<ellipse/>
		</object>
		<object id="174" name="Table" type="Table" x="129.333" y="351.333" width="32" height="32"/>
		<object id="175" name="Table" type="Table" x="448.667" y="355.333" width="32" height="32"/>
		<object id="176" name="SecuritySpawn" type="Spawn" x="113.333" y="370.667">
			<ellipse/>
		</object>
		<object id="177" name="ScientistSpawn" type="Spawn" x="49" y="79.667">
			<ellipse/>
		</object>
		<object id="178" name="ScientistSpawn" type="Spawn" x="144" y="82.667">
			<ellipse/>
		</object>
		<object id="179" name="ScientistSpawn" type="Spawn" x="592" y="82.667">
			<ellipse/>
		</object>
		<object id="180" name="ScientistSpawn" type="Spawn" x="498" y="83.667">
			<ellipse/>
		</object>
		<object id="181" name="SecuritySpawn" type="Spawn" x="153" y="185">
			<ellipse/>
		</object>
		<object id="182" name="RobotCorpse" type="RobotCorpse" x="90" y="180">
			<ellipse/>
		</object>
	</objectgroup>
	<objectgroup id="8" name="Acids"/>
</map>
