<?xml version="1.0" encoding="UTF-8"?>
<map version="1.10" tiledversion="1.11.2" orientation="orthogonal" renderorder="right-down" width="20" height="15" tilewidth="32" tileheight="32" infinite="0" nextlayerid="11" nextobjectid="192">
 <tileset firstgid="1" source="tileset_ebene2.tsx"/>
 <tileset firstgid="852" source="props_and_items_ebene2.tsx"/>
 <tileset firstgid="1380" source="Beartrap.tsx"/>
 <tileset firstgid="1384" source="ExplosionEffect.tsx"/>
 <layer id="3" name="floor" width="20" height="15">
  <data encoding="csv">
0,0,0,0,0,0,0,0,0,0,0,0,0,0,0,0,0,0,0,0,
72,72,72,72,72,72,72,72,72,72,72,72,72,72,72,72,72,72,72,72,
72,72,72,72,72,72,72,72,72,72,72,72,72,72,72,72,72,72,72,72,
72,72,72,72,72,72,72,72,72,72,72,72,72,72,72,72,72,72,72,72,
72,72,72,72,72,72,72,72,72,72,72,72,72,72,72,72,72,72,72,72,
0,0,0,72,72,72,72,72,72,72,72,72,72,72,72,72,72,0,0,0,
0,0,0,72,72,72,72,72,72,72,72,72,72,72,72,72,72,0,0,0,
0,0,0,72,72,72,72,72,107,107,107,72,72,72,72,72,72,0,0,0,
72,72,72,72,72,72,72,72,72,72,72,72,72,72,72,72,71,71,71,71,
72,72,72,72,72,72,72,72,72,72,72,72,72,72,72,72,71,71,71,71,
72,72,72,72,72,72,72,72,72,72,72,72,72,72,72,72,71,71,71,71,
72,72,72,72,72,72,72,72,72,72,72,72,72,72,72,72,71,71,71,71,
72,72,72,72,72,72,72,72,72,72,72,72,72,72,72,72,71,71,71,71,
72,72,72,72,72,72,72,72,72,72,72,72,72,72,72,72,71,71,71,71,
0,72,0,0,0,0,0,0,0,72,72,72,72,72,72,72,71,71,71,71
</data>
 </layer>
 <layer id="10" name="floorDecoration" width="20" height="15">
  <data encoding="csv">
0,0,0,0,0,0,0,0,0,0,0,0,0,0,0,0,0,0,0,0,
0,0,0,0,0,0,0,0,0,0,0,0,0,0,0,0,0,0,0,0,
0,0,0,0,0,0,0,0,0,0,0,0,0,0,0,0,0,0,0,0,
0,0,0,0,0,0,0,0,0,0,0,0,0,876,0,0,0,0,0,0,
0,0,0,0,0,0,0,0,0,0,0,0,0,0,0,0,0,0,0,0,
0,0,0,0,0,0,0,0,0,0,0,0,0,0,0,0,0,0,0,0,
0,0,0,0,0,0,0,0,0,0,0,0,0,0,0,0,0,0,0,0,
0,0,0,0,0,0,0,0,0,0,0,0,0,0,0,0,0,0,0,0,
0,0,0,0,0,0,0,0,0,0,0,0,0,0,0,0,0,0,0,0,
0,0,0,0,0,0,0,0,0,0,0,0,0,0,0,0,0,0,0,0,
0,0,0,0,0,0,0,0,0,0,0,0,0,0,0,0,0,0,0,0,
0,0,0,0,0,0,0,0,0,0,0,0,0,0,0,0,0,0,0,0,
0,0,0,0,0,0,0,0,0,0,0,0,0,0,0,0,0,0,0,0,
0,0,0,0,0,0,0,0,0,0,0,0,0,0,0,0,0,0,0,0,
0,0,0,0,0,0,0,0,0,0,0,0,0,0,0,0,0,0,0,0
</data>
 </layer>
 <layer id="1" name="walls" width="20" height="15">
  <data encoding="csv">
3,6,6,6,6,9,6,6,6,6,0,6,6,6,6,3,6,6,6,9,
76,0,0,0,0,306,0,0,0,0,0,0,0,0,0,298,0,0,0,84,
76,0,0,0,0,306,0,0,0,0,0,0,0,0,0,298,0,0,0,84,
76,0,0,0,0,306,0,0,0,0,0,0,0,0,0,298,0,0,0,84,
76,0,0,0,0,306,0,0,0,0,0,0,0,0,0,298,0,0,0,84,
335,6,9,0,0,0,0,0,0,0,0,0,0,0,0,0,0,39,6,379,
0,0,84,0,0,0,0,0,0,0,0,0,0,0,0,0,0,76,0,0,
39,376,379,376,376,376,376,376,0,0,0,376,376,376,376,376,376,373,0,9,
76,0,0,0,0,0,0,0,0,0,0,0,0,0,0,0,0,0,0,84,
76,0,0,0,0,0,0,0,0,0,0,0,0,0,0,0,0,0,0,84,
76,0,0,0,0,0,0,0,0,0,0,0,0,0,0,0,0,0,0,84,
76,0,0,0,0,0,0,0,0,0,0,0,0,0,0,0,0,0,0,84,
76,0,0,0,0,0,0,0,0,0,0,0,0,0,0,0,0,0,0,84,
76,0,0,0,0,0,0,0,0,0,0,0,0,0,0,0,0,0,0,84,
373,0,6,6,6,6,6,6,6,6,0,6,6,6,6,6,6,6,6,379
</data>
 </layer>
 <layer id="2" name="props" width="20" height="15">
  <data encoding="csv">
0,0,0,0,0,0,0,865,0,861,0,861,0,865,0,0,0,0,0,0,
0,0,0,0,913,0,0,0,0,0,0,0,0,0,0,0,0,0,908,0,
0,0,0,1056,0,0,0,0,0,0,0,0,0,0,0,0,0,1055,0,0,
0,0,0,0,0,0,0,0,0,0,0,0,0,0,0,0,0,0,0,0,
0,1056,0,0,1056,0,0,0,0,0,0,0,0,0,0,0,1055,0,0,0,
0,0,0,0,0,0,0,0,0,0,0,0,0,0,0,0,0,0,0,0,
0,0,0,0,0,0,0,0,0,0,0,0,0,0,0,0,0,0,0,0,
0,0,0,0,0,0,0,0,0,0,0,0,0,0,0,0,0,0,0,0,
0,0,0,0,0,972,973,0,0,0,0,0,852,0,0,0,0,0,0,0,
0,0,0,0,0,0,0,0,0,0,0,0,0,0,0,0,0,0,0,0,
0,0,0,0,0,0,0,0,0,0,0,0,0,0,0,0,0,0,0,0,
0,0,0,0,0,0,0,0,0,0,0,0,0,0,0,0,0,0,0,0,
0,0,0,0,1092,1092,0,0,0,0,0,0,0,0,0,0,0,0,0,0,
0,0,0,0,1116,1116,0,0,0,0,0,0,0,0,0,0,0,0,0,0,
0,0,0,0,0,0,0,0,0,0,0,0,0,0,0,0,0,0,0,0
</data>
 </layer>
 <objectgroup id="6" name="Collisions">
  <object id="4" x="352" y="472" width="288" height="8"/>
  <object id="19" x="632" y="32" width="8" height="152"/>
  <object id="110" x="0" y="32" width="8" height="152"/>
  <object id="111" x="632" y="256" width="8" height="216"/>
  <object id="112" x="0" y="256" width="8" height="216"/>
  <object id="113" x="0" y="24" width="320" height="8"/>
  <object id="114" x="352" y="24" width="288" height="8"/>
  <object id="115" x="544" y="184" width="96" height="8"/>
  <object id="116" x="544" y="192" width="8" height="56"/>
  <object id="117" x="352.5" y="248" width="223.5" height="8"/>
  <object id="118" x="608" y="248" width="32" height="8"/>
  <object id="119" x="0" y="472" width="320" height="8"/>
  <object id="120" x="0" y="184" width="96" height="8"/>
  <object id="121" x="0" y="248" width="256" height="8"/>
  <object id="123" x="88" y="192" width="8" height="56"/>
  <object id="175" x="481" y="24.5" width="7" height="134.5"/>
  <object id="176" x="184.5" y="24.5" width="8" height="136.5"/>
  <object id="180" x="132" y="42.6667" width="24" height="16.6667"/>
  <object id="181" x="581.333" y="42.6667" width="24.6667" height="18"/>
  <object id="183" x="136.667" y="424" width="16.6667" height="12.6667"/>
  <object id="184" x="166" y="425.333" width="20" height="12"/>
  <object id="185" x="170" y="265.333" width="46.6667" height="20.6667"/>
  <object id="186" x="396" y="270.667" width="8.66667" height="8"/>
 </objectgroup>
 <objectgroup id="9" name="Props"/>
 <objectgroup id="7" name="Entities">
  <object id="141" name="DoorSpawn" type="Door" x="32" y="448" width="32" height="32">
   <properties>
    <property name="DoorDirection" value="West"/>
   </properties>
  </object>
  <object id="142" name="DoorSpawn" type="Door" x="320" y="448" width="32" height="32">
   <properties>
    <property name="DoorDirection" value="South"/>
   </properties>
  </object>
  <object id="143" name="DoorSpawn" type="Door" x="576" y="224" width="32" height="32">
   <properties>
    <property name="DoorDirection" value="East"/>
   </properties>
  </object>
  <object id="144" name="DoorSpawn" type="Door" x="320" y="0" width="32" height="32">
   <properties>
    <property name="DoorDirection" value="North"/>
   </properties>
  </object>
  <object id="145" name="ChemicalTank" type="ChemicalTank" x="224.667" y="193.167" width="32" height="33"/>
  <object id="146" name="ChemicalTank" type="ChemicalTank" x="384" y="192.5" width="32" height="33"/>
  <object id="147" name="ChemicalTank" type="ChemicalTank" x="193.333" y="126.833" width="32" height="33"/>
  <object id="148" name="ChemicalTank" type="ChemicalTank" x="448.333" y="125.833" width="32" height="33"/>
  <object id="149" name="SecuritySpawn" type="Spawn" x="48.333" y="81.667">
   <ellipse/>
  </object>
  <object id="179" name="RobotSpawn" type="Spawner" x="524.667" y="65.3333" width="25.3333" height="20">
   <ellipse/>
  </object>
  <object id="187" name="Table" type="Table" x="480" y="288.667" width="32" height="32"/>
  <object id="188" name="Table" type="Table" x="480" y="320" width="32" height="32"/>
  <object id="190" name="SecuritySpawn" type="Spawn" x="131.715" y="338.716">
   <ellipse/>
  </object>
  <object id="191" name="ScientistSpawn" type="Spawn" x="89.4711" y="309.379">
   <ellipse/>
  </object>
 </objectgroup>
 <objectgroup id="8" name="Acids"/>
</map>
