<?xml version="1.0" encoding="UTF-8"?>
<map version="1.10" tiledversion="1.11.2" orientation="orthogonal" renderorder="right-down" width="24" height="15" tilewidth="32" tileheight="32" infinite="0" nextlayerid="11" nextobjectid="193">
 <tileset firstgid="1" source="tileset_ebene1.tsx"/>
 <tileset firstgid="852" source="props_and_items_ebene2.tsx"/>
 <tileset firstgid="1380" source="Beartrap.tsx"/>
 <tileset firstgid="1384" source="ExplosionEffect.tsx"/>
 <tileset firstgid="1385" source="tileset_ebene2.tsx"/>
 <layer id="3" name="floor" width="24" height="15">
  <data encoding="csv">
0,0,0,0,0,0,0,0,0,0,0,0,0,0,110,110,0,0,0,0,0,0,0,0,
107,74,74,74,74,74,74,74,74,74,74,74,74,74,74,74,74,74,74,107,0,0,0,0,
107,74,74,74,74,74,74,74,74,74,74,74,74,74,74,74,74,74,74,107,0,0,0,0,
107,70,70,74,74,70,70,70,70,70,70,70,70,70,70,74,74,70,70,107,0,0,0,0,
72,72,72,74,74,72,72,72,72,107,107,107,107,72,72,74,74,72,72,72,0,0,0,0,
0,72,0,74,74,72,71,71,71,71,71,71,71,71,71,74,74,72,72,0,0,0,0,0,
0,0,0,74,74,71,71,71,71,71,71,71,71,71,71,74,74,0,0,0,0,0,0,0,
0,0,0,74,74,71,71,71,71,71,71,71,71,71,71,74,74,0,0,0,0,0,0,0,
72,72,72,74,74,71,74,71,71,71,71,71,71,71,71,74,74,72,72,72,0,0,0,0,
72,72,72,74,74,72,72,72,72,72,72,71,71,71,72,74,74,72,72,72,72,72,72,72,
72,72,72,74,74,72,72,72,72,72,107,107,107,107,72,74,74,72,72,72,72,72,72,72,
72,72,72,74,74,72,72,72,72,72,72,72,72,72,72,74,74,72,72,72,72,72,72,72,
72,72,72,107,107,72,72,72,72,72,72,72,72,72,72,107,107,72,72,72,72,72,72,72,
72,72,72,72,72,72,72,72,72,72,72,72,72,72,72,72,72,72,72,72,72,72,72,72,
0,72,0,0,0,0,0,0,0,71,71,0,0,0,0,0,0,0,0,0,72,72,72,72
</data>
 </layer>
 <layer id="10" name="floorDecoration" width="24" height="15">
  <data encoding="csv">
0,0,0,0,0,0,0,0,0,0,0,0,0,0,0,0,0,0,0,0,0,0,0,0,
0,0,0,0,0,0,0,0,0,0,0,0,0,0,0,0,0,0,0,0,0,0,0,0,
0,0,0,0,0,0,0,0,0,0,0,0,0,0,0,0,0,0,0,0,0,0,0,0,
0,0,0,0,0,0,0,0,0,0,0,0,0,0,0,0,0,0,0,0,0,0,0,0,
0,0,0,0,0,0,0,0,0,0,0,0,0,0,0,0,0,0,0,0,0,0,0,0,
0,0,0,0,0,0,0,0,0,0,0,0,0,0,0,0,0,0,0,0,0,0,0,0,
0,0,0,0,0,0,0,0,0,876,877,0,0,0,0,0,0,0,0,0,0,0,0,0,
0,0,0,0,0,0,0,0,0,0,0,0,0,0,0,0,0,0,0,0,0,0,0,0,
0,0,0,0,0,0,0,0,0,0,0,0,0,0,0,0,0,0,0,0,0,0,0,0,
0,0,0,0,0,0,0,0,0,0,0,0,0,0,0,0,0,0,0,0,0,0,0,0,
0,0,0,0,0,0,0,0,0,0,0,0,0,0,0,0,0,0,0,0,0,0,0,0,
0,0,0,0,0,0,0,0,0,0,0,0,0,0,0,0,0,0,0,0,0,0,0,0,
0,0,0,0,0,0,0,0,0,0,0,0,0,0,0,0,0,0,0,0,0,0,0,0,
0,0,0,0,0,0,0,0,0,0,0,0,0,0,0,0,0,0,0,0,0,0,0,0,
0,0,0,0,0,0,0,0,0,0,0,0,0,0,0,0,0,0,0,0,0,0,0,0
</data>
 </layer>
 <layer id="1" name="walls" width="24" height="15">
  <data encoding="csv">
3,6,6,6,6,6,6,6,6,6,0,6,6,6,6,6,6,6,6,9,0,0,0,0,
76,0,0,0,0,0,0,0,0,0,0,0,0,0,0,0,0,0,0,84,0,0,0,0,
76,0,0,0,0,0,0,0,0,0,0,0,0,0,0,0,0,0,0,84,0,0,0,0,
76,0,0,0,0,0,0,0,0,0,0,0,0,0,0,0,0,0,0,84,0,0,0,0,
76,0,0,0,0,301,6,6,9,0,0,0,0,50,9,0,0,0,0,84,0,0,0,0,
335,0,9,0,0,41,0,0,45,0,0,0,0,0,84,0,0,39,6,379,0,0,0,0,
0,0,84,0,0,0,0,0,0,0,0,0,0,0,84,0,0,76,0,0,0,0,0,0,
39,6,379,0,0,0,0,0,0,0,0,0,0,0,84,0,0,373,0,9,0,0,0,0,
76,0,0,0,0,150,0,0,0,0,0,0,0,0,84,0,0,0,0,84,0,0,0,0,
76,0,0,0,0,373,6,6,6,6,274,0,0,124,343,0,0,0,0,46,6,6,0,9,
76,0,0,0,0,0,0,0,0,0,0,0,0,0,0,0,0,0,0,0,0,0,0,306,
76,0,0,0,0,0,0,0,0,0,0,0,0,0,0,0,0,0,0,0,0,0,0,306,
76,0,0,0,0,0,0,0,0,0,0,0,0,0,0,0,0,0,0,0,0,0,0,306,
76,0,0,0,0,0,0,0,0,0,0,0,0,0,0,0,0,0,0,0,0,0,0,306,
373,6,6,6,6,6,6,6,6,6,0,6,6,6,6,6,6,6,6,376,376,376,376,379
</data>
 </layer>
 <layer id="2" name="props" width="24" height="15">
  <data encoding="csv">
0,0,0,0,0,0,0,0,0,0,0,0,948,949,0,0,0,0,0,0,0,0,0,0,
0,0,0,0,0,0,0,0,0,0,0,0,0,0,0,0,0,0,0,0,0,0,0,0,
0,0,0,0,0,0,0,0,0,0,0,0,0,0,0,0,0,0,0,0,0,0,0,0,
0,0,0,0,0,0,0,0,0,0,0,0,0,0,0,0,0,0,0,0,0,0,0,0,
0,0,0,0,0,0,859,0,0,0,0,0,0,0,0,0,0,0,0,0,0,0,0,0,
0,0,0,0,0,1104,1105,902,1108,0,0,0,0,1104,1105,0,0,0,0,0,0,0,0,0,
0,0,0,0,0,0,0,0,0,0,0,0,0,1104,1105,0,0,0,0,0,0,0,0,0,
0,0,0,0,0,0,0,0,0,0,0,0,0,1104,1105,0,0,0,0,0,0,0,0,0,
0,0,0,0,0,0,0,0,0,0,0,0,0,1104,1105,0,0,0,0,0,0,0,0,0,
0,0,0,0,0,0,1092,1092,0,0,0,0,0,0,0,0,0,0,0,0,0,0,0,0,
0,0,0,0,0,0,1116,1116,0,0,0,0,0,0,0,0,878,0,0,0,0,0,0,0,
0,0,0,0,0,0,0,0,0,0,0,0,0,0,0,0,0,0,0,0,0,0,0,0,
0,0,0,0,0,0,0,0,0,0,0,0,0,0,0,0,0,0,0,0,0,0,0,0,
0,0,0,0,0,0,0,0,0,0,0,0,0,0,0,0,0,0,0,0,0,0,0,0,
0,0,0,0,0,0,0,0,0,0,0,0,0,0,0,0,0,0,0,0,0,0,0,0
</data>
 </layer>
 <objectgroup id="6" name="Collisions">
  <object id="4" x="352" y="472" width="416" height="8"/>
  <object id="19" x="632" y="32" width="8" height="152"/>
  <object id="110" x="0" y="32" width="8" height="152"/>
  <object id="111" x="759.333" y="288.333" width="8" height="183.667"/>
  <object id="112" x="0" y="256" width="8" height="216"/>
  <object id="113" x="0" y="24" width="320" height="8"/>
  <object id="114" x="352" y="24" width="288" height="8"/>
  <object id="115" x="544" y="184" width="96" height="8"/>
  <object id="116" x="544" y="192" width="8" height="56"/>
  <object id="117" x="544" y="248" width="32" height="8"/>
  <object id="118" x="608" y="248" width="32" height="8"/>
  <object id="119" x="0" y="472" width="320" height="8"/>
  <object id="120" x="0" y="184" width="96" height="8"/>
  <object id="121" x="0" y="248" width="96" height="8"/>
  <object id="123" x="88" y="192" width="8" height="56"/>
  <object id="154" x="631" y="256.833" width="8" height="62.0003"/>
  <object id="155" x="640" y="311" width="63.6667" height="8"/>
  <object id="156" x="736.833" y="311.667" width="22" height="8"/>
  <object id="159" x="416" y="312" width="64" height="8"/>
  <object id="160" x="416" y="152" width="64" height="8"/>
  <object id="161" x="160" y="152" width="128" height="8"/>
  <object id="162" x="160" y="312" width="192" height="8"/>
  <object id="163" x="160" y="288" width="8" height="24"/>
  <object id="164" x="472" y="160" width="8" height="152"/>
  <object id="165" x="160" y="160" width="8" height="32"/>
  <object id="166" x="280" y="160" width="8" height="32"/>
  <object id="184" x="198" y="330" width="21" height="10"/>
  <object id="185" x="230" y="330" width="21" height="10"/>
 </objectgroup>
 <objectgroup id="9" name="Props">
  <object id="167" x="172" y="173" width="40" height="16"/>
  <object id="168" x="256" y="168" width="12" height="16"/>
  <object id="169" x="228" y="178" width="24" height="12"/>
  <object id="170" x="428" y="173" width="40" height="16"/>
  <object id="177" x="428" y="205" width="40" height="16"/>
  <object id="178" x="428" y="237" width="40" height="16"/>
  <object id="179" x="428" y="269" width="40" height="16"/>
 </objectgroup>
 <objectgroup id="7" name="Entities">
  <object id="105" name="DoorSpawn" type="Door" x="576" y="224" width="32" height="32">
   <properties>
    <property name="DoorDirection" value="East"/>
   </properties>
  </object>
  <object id="106" name="DoorSpawn" type="Door" x="32" y="160" width="32" height="32">
   <properties>
    <property name="DoorDirection" value="West"/>
   </properties>
  </object>
  <object id="107" name="DoorSpawn" type="Door" x="320" y="0" width="32" height="32">
   <properties>
    <property name="DoorDirection" value="North"/>
   </properties>
  </object>
  <object id="108" name="DoorSpawn" type="Door" x="320" y="448" width="32" height="32">
   <properties>
    <property name="DoorDirection" value="South"/>
   </properties>
  </object>
  <object id="157" name="ElevatorSpawn" type="ElevatorSpawn" x="704" y="288" width="32" height="32">
   <properties>
    <property name="Open" type="bool" value="false"/>
   </properties>
  </object>
  <object id="158" name="BossSpawn" type="Spawn" x="323" y="232">
   <ellipse/>
  </object>
  <object id="36" name="RobotCorpse" type="RobotCorpse" x="80" y="80" width="32" height="32"/>
  <object id="189" name="ChemicalTank" type="ChemicalTank" x="289" y="158" width="32" height="33"/>
  <object id="190" name="Table" type="Table" x="577.333" y="319.333" width="32" height="32"/>
  <object id="191" name="Table" type="Table" x="577.333" y="351.333" width="32" height="32"/>
  <object id="192" name="Table" type="Table" x="257.333" y="351.333" width="32" height="32"/>
 </objectgroup>
 <objectgroup id="8" name="Acids"/>
</map>
