<?xml version="1.0" encoding="UTF-8"?>
<map version="1.10" tiledversion="1.11.2" orientation="orthogonal" renderorder="right-down" width="20" height="15" tilewidth="32" tileheight="32" infinite="0" nextlayerid="10" nextobjectid="165">
 <tileset firstgid="1" source="tileset_ebene3.tsx"/>
 <tileset firstgid="852" source="props_and_items_ebene2.tsx"/>
 <tileset firstgid="1380" source="Beartrap.tsx"/>
 <tileset firstgid="1384" source="ExplosionEffect.tsx"/>
 <tileset firstgid="1385" source="tileset_ebene2.tsx"/>
 <layer id="3" name="floor" width="20" height="15">
  <data encoding="csv">
0,0,0,0,0,0,0,0,0,0,0,0,0,0,110,110,0,0,0,0,
107,109,110,110,110,110,110,110,110,74,74,74,110,110,110,110,110,110,111,107,
107,146,147,147,147,147,147,147,147,74,74,74,147,147,147,147,147,147,148,107,
107,107,107,74,74,70,70,70,70,70,70,70,70,70,70,74,74,107,107,107,
107,74,107,147,148,72,107,107,72,72,72,72,72,70,72,146,148,110,110,110,
0,74,0,146,148,72,74,74,74,74,74,74,74,74,72,146,148,72,72,0,
0,0,0,146,148,72,74,74,74,74,74,74,74,74,72,146,148,0,0,0,
0,0,0,146,148,72,70,70,107,107,107,107,72,72,72,146,148,0,0,0,
107,107,107,74,74,72,107,107,72,107,107,70,107,107,72,74,74,107,74,107,
107,107,107,74,74,72,74,74,74,74,74,74,74,74,72,74,74,107,107,107,
110,110,110,147,148,72,74,74,74,74,74,74,74,74,72,146,148,110,110,110,
147,147,147,147,148,72,72,72,72,72,72,70,70,72,72,146,148,147,147,147,
146,147,147,147,147,110,110,110,110,110,74,110,110,110,110,147,147,147,147,148,
146,147,147,147,147,147,147,147,147,147,74,147,147,147,147,147,147,147,147,148,
0,0,0,0,0,0,0,0,0,71,74,0,0,0,0,0,0,0,0,0
</data>
 </layer>
 <layer id="1" name="walls" width="20" height="15">
  <data encoding="csv">
3,6,6,6,6,6,6,6,6,6,0,6,6,6,6,6,6,6,6,9,
76,0,0,0,0,0,0,0,0,0,0,0,0,0,0,0,0,0,0,84,
76,0,0,0,0,0,0,0,0,0,0,0,0,0,0,0,0,0,0,84,
76,0,0,0,0,0,0,0,0,0,0,0,0,0,0,0,0,0,0,84,
76,0,0,0,0,0,0,0,0,0,0,0,0,0,0,0,0,0,0,84,
335,0,9,0,0,0,0,0,0,0,0,0,0,0,0,0,0,39,6,379,
0,0,84,0,0,0,0,0,0,0,0,0,0,0,0,0,0,76,0,0,
39,6,379,0,0,0,0,0,0,0,0,0,0,0,0,0,0,373,0,9,
76,0,0,0,0,0,0,0,0,0,0,0,0,0,0,0,0,0,0,84,
76,0,0,0,0,0,0,0,0,0,0,0,0,0,0,0,0,0,0,84,
76,0,0,0,0,0,0,0,0,0,0,0,0,0,0,0,0,0,0,84,
76,0,0,0,0,0,0,0,0,0,0,0,0,0,0,0,0,0,0,84,
76,0,0,0,0,0,0,0,0,0,0,0,0,0,0,0,0,0,0,84,
76,0,0,0,0,0,0,0,0,0,0,0,0,0,0,0,0,0,0,84,
373,6,6,6,6,6,6,6,6,6,0,6,6,6,6,6,6,6,6,379
</data>
 </layer>
 <layer id="2" name="props" width="20" height="15">
  <data encoding="csv">
0,0,0,0,0,0,0,0,0,859,0,859,0,0,0,0,0,0,0,0,
0,0,0,0,0,0,0,0,0,0,0,0,0,0,0,0,0,0,0,0,
0,0,0,0,0,0,0,0,0,0,0,0,0,0,0,0,0,0,0,0,
0,0,0,0,0,0,0,0,0,0,0,0,0,0,0,0,0,0,0,0,
0,0,0,0,0,0,0,0,0,0,0,0,0,0,0,0,0,0,0,0,
0,0,0,0,0,1092,0,0,0,0,0,0,0,0,0,0,0,0,0,0,
0,0,0,0,0,1116,0,0,1092,1092,0,0,0,0,0,0,0,0,0,0,
0,0,0,0,0,0,0,0,1116,1116,0,0,0,0,0,0,0,0,0,0,
0,0,0,0,0,0,0,0,0,0,0,0,0,0,0,0,0,0,0,0,
0,0,0,0,0,0,0,0,0,0,0,0,1092,1092,0,0,0,0,0,0,
0,0,0,0,0,0,0,0,0,0,0,0,1116,1116,0,0,878,0,0,0,
0,0,0,0,0,0,0,0,0,0,0,0,0,0,0,0,0,0,0,0,
0,0,0,0,0,0,0,0,0,0,0,0,0,0,0,0,0,0,0,0,
0,0,0,0,0,0,0,0,0,0,0,0,0,0,0,0,0,0,0,0,
0,0,0,0,0,0,0,0,0,0,0,0,0,0,0,0,0,0,0,0
</data>
 </layer>
 <objectgroup id="6" name="Collisions">
  <object id="4" x="352" y="472" width="288" height="8"/>
  <object id="19" x="632" y="32" width="8" height="152"/>
  <object id="110" x="0" y="32" width="8" height="152"/>
  <object id="111" x="632" y="256" width="8" height="216"/>
  <object id="112" x="0" y="256" width="8" height="216"/>
  <object id="113" x="0" y="24" width="320" height="8"/>
  <object id="114" x="352" y="24" width="288" height="8"/>
  <object id="115" x="544" y="184" width="96" height="8"/>
  <object id="116" x="544" y="192" width="8" height="56"/>
  <object id="117" x="544" y="248" width="32" height="8"/>
  <object id="118" x="608" y="248" width="32" height="8"/>
  <object id="119" x="0" y="472" width="320" height="8"/>
  <object id="120" x="0" y="184" width="96" height="8"/>
  <object id="121" x="0" y="248" width="96" height="8"/>
  <object id="123" x="88" y="192" width="8" height="56"/>
  <object id="156" x="166" y="202" width="21" height="10"/>
  <object id="157" x="262" y="234" width="21" height="10"/>
  <object id="158" x="294" y="234" width="21" height="10"/>
  <object id="160" x="390" y="330" width="21" height="10"/>
  <object id="161" x="422" y="330" width="21" height="10"/>
 </objectgroup>
 <objectgroup id="9" name="Props"/>
 <objectgroup id="7" name="Entities">
  <object id="53" name="Beartrap" type="Trap" gid="1380" x="447.388" y="192.63" width="32" height="32">
   <properties>
    <property name="Damage" type="float" value="40"/>
    <property name="Effect" type="object" value="58"/>
    <property name="RangeLayer" type="object" value="54"/>
   </properties>
  </object>
  <object id="58" name="ExplosionEffect" gid="1384" x="399" y="192" width="128" height="128"/>
  <object id="105" name="DoorSpawn" type="Door" x="576" y="224" width="32" height="32">
   <properties>
    <property name="DoorDirection" value="East"/>
   </properties>
  </object>
  <object id="106" name="DoorSpawn" type="Door" x="32" y="160" width="32" height="32">
   <properties>
    <property name="DoorDirection" value="West"/>
   </properties>
  </object>
  <object id="107" name="DoorSpawn" type="Door" x="320" y="0" width="32" height="32">
   <properties>
    <property name="DoorDirection" value="North"/>
   </properties>
  </object>
  <object id="108" name="DoorSpawn" type="Door" x="320" y="448" width="32" height="32">
   <properties>
    <property name="DoorDirection" value="South"/>
   </properties>
  </object>
  <object id="154" name="CEOSpawn" type="CEOSpawn" x="338" y="239">
   <ellipse/>
  </object>
  <object id="162" name="Table" type="Table" x="192" y="288" width="32" height="32"/>
  <object id="163" name="Table" type="Table" x="192" y="320" width="32" height="32"/>
  <object id="164" name="ChemicalTank" type="ChemicalTank" x="384" y="128" width="32" height="33"/>
 </objectgroup>
 <objectgroup id="8" name="Acids"/>
</map>
