<?xml version="1.0" encoding="UTF-8"?>
<map version="1.10" tiledversion="1.11.2" orientation="orthogonal" renderorder="right-down" width="24" height="15" tilewidth="32" tileheight="32" infinite="0" nextlayerid="11" nextobjectid="166">
 <tileset firstgid="1" source="tileset_ebene2.tsx"/>
 <tileset firstgid="852" source="props_and_items_ebene2.tsx"/>
 <tileset firstgid="1380" source="Beartrap.tsx"/>
 <tileset firstgid="1384" source="ExplosionEffect.tsx"/>
 <layer id="3" name="floor" width="24" height="15">
  <data encoding="csv">
0,0,0,0,0,0,0,0,0,0,0,0,0,0,110,110,0,0,0,0,0,0,0,0,
107,109,110,110,110,110,110,110,110,74,74,74,110,110,110,110,110,110,111,107,0,0,0,0,
107,146,147,147,147,147,147,147,147,74,74,74,147,147,147,147,147,147,148,107,0,0,0,0,
107,70,70,74,74,70,70,70,70,70,70,70,70,70,70,74,74,70,70,107,0,0,0,0,
72,72,72,74,74,72,72,72,72,72,72,72,72,72,72,74,74,72,72,72,0,0,0,0,
0,0,0,74,74,72,72,72,72,72,72,72,72,72,72,74,74,72,72,0,0,0,0,0,
0,0,0,74,74,72,72,72,72,72,72,72,72,72,72,74,74,0,0,0,0,0,0,0,
0,0,0,74,74,72,72,72,72,72,72,72,72,72,72,74,74,0,0,0,0,0,0,0,
72,72,72,74,74,72,72,72,72,72,72,72,72,72,72,74,74,72,72,72,0,0,0,0,
72,72,72,74,74,72,72,72,72,72,72,72,72,72,72,74,74,72,72,72,0,0,0,0,
72,72,72,74,74,72,72,72,72,72,72,72,72,72,72,74,74,72,72,72,72,72,72,72,
72,72,72,74,74,72,72,72,72,72,72,72,72,72,72,74,74,72,72,72,72,72,72,72,
72,72,72,107,107,72,72,72,72,72,72,72,72,72,72,107,107,72,72,72,72,72,72,72,
72,72,72,72,72,72,72,72,72,72,72,72,72,72,72,72,72,72,72,72,72,72,72,72,
0,72,0,0,0,0,0,0,0,71,71,0,0,0,0,0,0,0,0,0,72,72,72,72
</data>
 </layer>
 <layer id="10" name="floorDecoration" width="24" height="15">
  <data encoding="csv">
0,0,0,0,0,0,0,0,0,0,0,0,0,0,0,0,0,0,0,0,0,0,0,0,
0,0,0,0,0,0,0,0,0,0,0,0,0,0,0,0,0,0,0,0,0,0,0,0,
0,0,0,0,0,0,0,0,0,0,0,0,0,0,0,0,0,0,0,0,0,0,0,0,
0,0,0,0,0,0,0,0,0,0,0,0,0,0,0,0,0,0,0,0,0,0,0,0,
0,0,0,0,0,0,0,0,0,0,0,0,0,0,0,0,0,0,0,0,0,0,0,0,
0,0,0,0,0,0,0,0,0,0,0,0,0,0,0,0,0,0,0,0,0,0,0,0,
0,0,0,0,0,0,0,0,0,876,877,0,0,0,0,0,0,0,0,0,0,0,0,0,
0,0,0,0,0,0,0,0,0,0,0,0,0,0,0,0,0,0,0,0,0,0,0,0,
0,0,0,0,0,0,0,0,0,0,0,0,0,0,0,0,0,0,0,0,0,0,0,0,
0,0,0,0,0,0,0,0,0,0,0,0,0,0,0,0,0,0,0,0,0,0,0,0,
0,0,0,0,0,0,0,0,0,0,0,0,0,0,0,0,0,0,0,0,0,0,0,0,
0,0,0,0,0,0,0,0,0,0,0,0,0,0,0,0,0,0,0,0,0,0,0,0,
0,0,0,0,0,0,0,0,0,0,0,0,0,0,0,0,0,0,0,0,0,0,0,0,
0,0,0,0,0,0,0,0,0,0,0,0,0,0,0,0,0,0,0,0,0,0,0,0,
0,0,0,0,0,0,0,0,0,0,0,0,0,0,0,0,0,0,0,0,0,0,0,0
</data>
 </layer>
 <layer id="1" name="walls" width="24" height="15">
  <data encoding="csv">
3,6,6,6,6,6,6,6,6,6,0,6,6,6,6,6,6,6,6,9,0,0,0,0,
76,0,0,0,0,0,0,0,0,0,0,0,0,0,0,0,0,0,0,84,0,0,0,0,
76,0,0,0,0,0,0,0,0,0,0,0,0,0,0,0,0,0,0,84,0,0,0,0,
76,0,0,0,0,124,200,0,0,0,0,0,0,0,0,0,0,0,0,84,0,0,0,0,
76,0,0,0,0,0,0,0,0,0,0,0,0,0,0,0,0,0,0,84,0,0,0,0,
335,6,9,0,0,0,0,0,0,0,0,0,0,0,0,0,0,39,6,379,0,0,0,0,
0,0,84,0,0,0,0,0,0,0,0,0,0,0,0,0,0,76,0,0,0,0,0,0,
39,6,379,0,0,0,0,0,0,0,0,0,0,0,0,0,0,373,0,9,0,0,0,0,
76,0,0,0,0,50,6,6,6,6,6,6,6,6,274,0,0,0,0,84,0,0,0,0,
76,0,0,0,0,0,0,0,0,0,0,0,0,0,0,0,0,0,0,46,6,6,0,47,
76,0,0,0,0,0,0,0,0,0,0,0,0,0,0,0,0,0,0,0,0,0,0,306,
76,0,0,0,0,0,0,0,0,0,0,0,0,0,0,0,0,0,0,0,0,0,0,306,
76,0,0,0,0,0,0,0,0,0,0,0,0,0,0,0,0,0,0,0,0,0,0,306,
76,0,0,0,0,0,0,0,0,0,0,0,0,0,0,0,0,0,0,0,0,0,0,306,
373,0,6,6,6,6,6,6,6,6,0,6,6,6,6,6,6,6,6,376,376,376,376,379
</data>
 </layer>
 <layer id="2" name="props" width="24" height="15">
  <data encoding="csv">
0,0,0,0,0,0,0,0,0,0,0,0,0,0,0,0,0,0,0,0,0,0,0,0,
0,0,0,0,0,0,0,0,0,0,0,0,0,0,0,0,0,0,0,0,0,0,0,0,
0,0,0,0,0,0,0,0,0,0,0,0,0,0,0,0,0,0,0,0,0,0,0,0,
0,0,0,0,0,948,949,0,0,0,0,0,0,0,0,0,0,0,0,0,0,0,0,0,
0,0,0,0,0,0,0,0,0,0,1092,0,0,0,0,0,0,0,0,0,0,0,0,0,
0,0,0,0,0,0,0,0,0,0,1116,0,0,0,0,0,0,0,0,0,0,0,0,0,
0,0,0,0,0,0,0,0,0,0,0,0,0,0,0,0,0,0,0,0,0,0,0,0,
0,0,0,0,0,0,0,0,0,0,0,0,0,0,0,0,0,0,0,0,0,0,0,0,
0,0,0,0,0,0,1092,1092,948,949,1092,883,1092,1092,0,0,0,0,0,0,0,0,0,0,
0,0,0,0,0,0,1116,1116,0,0,1116,910,1116,1116,0,0,0,0,0,0,0,0,0,0,
0,0,0,0,0,0,0,0,0,0,0,0,0,0,0,0,878,0,0,0,0,0,0,0,
0,0,0,0,0,0,0,0,0,0,0,0,0,0,0,0,0,0,0,0,0,0,0,0,
0,0,0,0,0,0,0,0,0,0,0,0,0,0,0,0,0,0,0,0,0,0,0,0,
0,0,0,0,0,0,0,0,0,0,0,0,0,0,0,0,0,0,0,0,0,0,0,0,
0,0,0,0,0,0,0,0,0,0,0,0,0,0,0,0,0,0,0,0,0,0,0,0
</data>
 </layer>
 <objectgroup id="6" name="Collisions">
  <object id="4" x="352" y="472" width="415.667" height="8"/>
  <object id="19" x="632" y="32" width="8" height="152"/>
  <object id="110" x="0" y="32" width="8" height="152"/>
  <object id="111" x="632" y="256" width="8" height="63"/>
  <object id="112" x="0" y="256" width="8" height="216"/>
  <object id="113" x="0" y="24" width="320" height="8"/>
  <object id="114" x="352" y="24" width="288" height="8"/>
  <object id="115" x="544" y="184" width="96" height="8"/>
  <object id="116" x="544" y="192" width="8" height="56"/>
  <object id="117" x="544" y="248" width="32" height="8"/>
  <object id="118" x="608" y="248" width="32" height="8"/>
  <object id="119" x="0" y="472" width="320" height="8"/>
  <object id="120" x="0" y="184" width="96" height="8"/>
  <object id="121" x="0" y="248" width="96" height="8"/>
  <object id="123" x="88" y="192" width="8" height="56"/>
  <object id="143" x="160" y="280" width="320" height="8"/>
  <object id="144" x="198" y="298" width="21" height="10"/>
  <object id="145" x="230" y="298" width="21" height="10"/>
  <object id="146" x="326" y="298" width="21" height="10"/>
  <object id="147" x="390" y="298" width="21" height="10"/>
  <object id="148" x="422" y="298" width="21" height="10"/>
  <object id="149" x="326" y="170" width="21" height="10"/>
  <object id="150" x="160" y="120" width="64" height="8"/>
  <object id="155" x="760.333" y="287.667" width="8" height="191.333"/>
  <object id="156" x="638.667" y="312" width="64.3333" height="8"/>
  <object id="157" x="737.5" y="312.667" width="30.3333" height="8"/>
 </objectgroup>
 <objectgroup id="9" name="Props">
  <object id="151" x="356" y="306" width="25" height="10"/>
 </objectgroup>
 <objectgroup id="7" name="Entities">
  <object id="53" name="Beartrap" type="Trap" gid="1380" x="509.862" y="421.584" width="32" height="32">
   <properties>
    <property name="Damage" type="float" value="40"/>
    <property name="Effect" type="object" value="58"/>
    <property name="RangeLayer" type="object" value="54"/>
   </properties>
  </object>
  <object id="58" name="ExplosionEffect" gid="1384" x="461.5" y="414.5" width="128" height="128"/>
  <object id="105" name="DoorSpawn" type="Door" x="576" y="224" width="32" height="32">
   <properties>
    <property name="DoorDirection" value="East"/>
   </properties>
  </object>
  <object id="106" name="DoorSpawn" type="Door" x="32" y="448" width="32" height="32">
   <properties>
    <property name="DoorDirection" value="West"/>
   </properties>
  </object>
  <object id="107" name="DoorSpawn" type="Door" x="320" y="0" width="32" height="32">
   <properties>
    <property name="DoorDirection" value="North"/>
   </properties>
  </object>
  <object id="108" name="DoorSpawn" type="Door" x="320" y="448" width="32" height="32">
   <properties>
    <property name="DoorDirection" value="South"/>
   </properties>
  </object>
  <object id="158" name="ElevatorSpawn" type="ElevatorSpawn" x="704" y="289" width="32" height="32">
   <properties>
    <property name="Open" type="bool" value="false"/>
   </properties>
  </object>
  <object id="159" name="BossSpawn" type="Spawn" x="320" y="224">
   <ellipse/>
  </object>
  <object id="160" name="Table" type="Table" x="225.333" y="159.333" width="32" height="32"/>
  <object id="161" name="Table" type="Table" x="385.333" y="159.333" width="32" height="32"/>
  <object id="164" name="ChemicalTank" type="ChemicalTank" x="224" y="352" width="32" height="33"/>
  <object id="165" name="ChemicalTank" type="ChemicalTank" x="416" y="352" width="32" height="33"/>
 </objectgroup>
 <objectgroup id="8" name="Acids">
  <object id="152" x="33" y="33" width="255" height="63"/>
  <object id="153" x="384" y="33" width="224" height="63"/>
 </objectgroup>
</map>
