<?xml version="1.0" encoding="UTF-8"?>
<map version="1.10" tiledversion="1.11.2" orientation="orthogonal" renderorder="right-down" width="20" height="15" tilewidth="32" tileheight="32" infinite="0" nextlayerid="13" nextobjectid="148">
 <tileset firstgid="1" source="tileset_ebene3.tsx"/>
 <tileset firstgid="852" source="props_and_items_ebene2.tsx"/>
 <tileset firstgid="1380" source="Beartrap.tsx"/>
 <tileset firstgid="1384" source="ExplosionEffect.tsx"/>
 <layer id="3" name="floor" width="20" height="15">
  <data encoding="csv">
0,0,0,0,0,0,0,0,0,0,0,0,0,0,0,0,0,0,0,0,
0,0,0,0,0,0,0,0,72,71,71,71,72,72,70,70,72,0,0,0,
0,0,0,0,0,0,0,0,72,71,71,71,72,72,107,72,72,0,0,0,
0,0,0,0,0,0,0,0,72,72,72,72,72,107,72,72,72,0,0,0,
0,0,0,0,0,0,0,0,72,72,72,72,109,110,72,72,72,0,0,0,
0,0,0,0,0,0,0,0,0,0,0,0,0,0,74,74,74,0,0,0,
0,0,0,0,0,0,0,0,0,0,0,0,0,0,74,74,74,0,0,0,
0,0,0,72,74,107,107,72,184,72,72,72,72,71,72,72,72,0,0,0,
72,71,72,72,107,72,72,72,71,71,71,71,72,72,72,72,72,72,71,72,
72,72,72,72,72,107,72,72,72,72,72,107,72,72,72,72,72,72,72,72,
72,72,107,107,72,72,72,72,72,73,72,72,72,72,72,72,72,72,72,72,
0,0,0,0,0,0,0,0,72,184,72,72,0,0,0,0,0,0,0,0,
0,0,0,0,0,0,0,0,72,74,72,72,0,0,0,0,0,0,0,0,
0,0,0,0,0,0,0,0,72,72,71,72,0,0,0,0,0,0,0,0,
0,0,0,0,0,0,0,0,0,72,71,0,0,0,0,0,0,0,0,0
</data>
 </layer>
 <layer id="1" name="walls" width="20" height="15">
  <data encoding="csv">
0,0,0,0,0,0,0,0,3,6,0,6,6,6,6,6,9,0,0,0,
0,0,0,0,0,0,0,0,76,0,0,0,0,0,0,0,84,0,0,0,
0,0,0,0,0,0,0,0,76,0,0,0,0,0,0,0,84,0,0,0,
0,0,0,0,0,0,0,0,76,0,0,0,0,0,0,0,84,0,0,0,
0,0,0,0,0,0,0,0,373,6,6,6,6,47,0,0,84,0,0,0,
0,0,0,0,0,0,0,0,0,0,0,0,0,84,0,0,84,0,0,0,
0,0,0,0,0,0,0,0,0,0,0,0,0,84,0,0,84,0,0,0,
39,6,6,6,6,6,6,6,6,6,6,6,6,379,0,0,46,6,0,9,
76,0,0,0,0,0,0,0,0,0,0,0,0,0,0,0,0,0,0,84,
76,0,0,0,0,0,0,0,0,0,0,0,0,0,0,0,0,0,0,84,
373,0,376,376,376,376,376,376,336,0,0,0,3,376,376,376,376,376,376,379,
0,0,0,0,0,0,0,0,76,0,0,0,76,0,0,0,0,0,0,0,
0,0,0,0,0,0,0,0,76,0,0,0,76,0,0,0,0,0,0,0,
0,0,0,0,0,0,0,0,76,0,0,0,76,0,0,0,0,0,0,0,
0,0,0,0,0,0,0,0,373,6,0,6,40,0,0,0,0,0,0,0
</data>
 </layer>
 <layer id="12" name="floorDecoration" width="20" height="15">
  <data encoding="csv">
0,0,0,0,0,0,0,0,0,0,0,0,0,0,0,0,0,0,0,0,
0,0,0,0,0,0,0,0,0,879,880,0,0,0,0,0,0,0,0,0,
0,0,0,0,0,0,0,0,0,0,0,0,0,0,0,0,0,0,0,0,
0,0,0,0,0,0,0,0,0,0,0,0,0,0,0,0,0,0,0,0,
0,0,0,0,0,0,0,0,0,0,0,0,0,0,0,0,0,0,0,0,
0,0,0,0,0,0,0,0,0,0,0,0,0,0,0,0,0,0,0,0,
0,0,0,0,0,0,0,0,0,0,0,0,0,0,0,0,0,0,0,0,
0,0,0,0,0,0,0,0,0,0,0,0,0,0,0,0,0,0,0,0,
0,0,0,0,0,0,0,0,0,0,0,0,0,0,0,0,0,0,0,0,
0,0,0,0,0,0,0,0,0,0,0,0,0,0,0,0,0,0,0,0,
0,0,0,0,0,0,0,0,0,0,877,0,0,0,0,0,0,0,0,0,
0,0,0,0,0,0,0,0,876,0,0,0,0,0,0,0,0,0,0,0,
0,0,0,0,0,0,0,0,0,0,0,0,0,0,0,0,0,0,0,0,
0,0,0,0,0,0,0,0,0,0,0,0,0,0,0,0,0,0,0,0,
0,0,0,0,0,0,0,0,0,0,0,0,0,0,0,0,0,0,0,0
</data>
 </layer>
 <layer id="2" name="props" width="20" height="15">
  <data encoding="csv">
0,0,0,0,0,0,0,0,0,0,0,0,0,0,948,949,0,0,0,0,
0,0,0,0,0,0,0,0,0,0,0,0,0,0,0,0,0,0,0,0,
0,0,0,0,0,0,0,0,0,0,0,0,0,0,0,0,0,0,0,0,
0,0,0,0,0,0,0,0,0,0,0,0,0,0,0,0,0,0,0,0,
0,0,0,0,0,0,0,0,0,0,0,0,0,0,0,0,0,0,0,0,
0,0,0,0,0,0,0,0,0,0,0,0,0,0,0,0,0,0,0,0,
0,0,0,0,0,0,0,0,0,0,0,0,0,0,0,0,0,0,0,0,
0,0,0,0,0,0,0,0,0,948,949,0,0,0,0,0,0,0,0,0,
0,0,0,0,0,0,0,0,0,0,0,0,0,0,0,0,0,0,0,0,
0,0,0,0,0,0,0,0,0,0,0,0,0,0,0,0,0,0,0,0,
0,0,0,0,0,0,0,0,0,0,0,0,0,0,0,0,0,0,0,0,
0,0,0,0,0,0,0,0,0,0,0,0,0,0,0,0,0,0,0,0,
0,0,0,0,0,0,0,0,0,0,0,0,0,0,0,0,0,0,0,0,
0,0,0,0,0,0,0,0,0,0,0,0,0,0,0,0,0,0,0,0,
0,0,0,0,0,0,0,0,0,0,0,0,0,0,0,0,0,0,0,0
</data>
 </layer>
 <objectgroup id="6" name="Collisions">
  <object id="110" x="256" y="24" width="64" height="8"/>
  <object id="111" x="352" y="24" width="192" height="8"/>
  <object id="112" x="536" y="32" width="8" height="224"/>
  <object id="113" x="544" y="248" width="32" height="8"/>
  <object id="114" x="608" y="248" width="32" height="8"/>
  <object id="115" x="632" y="256" width="8" height="88"/>
  <object id="116" x="384" y="344" width="256" height="8"/>
  <object id="117" x="384" y="352" width="8" height="128"/>
  <object id="118" x="352" y="472" width="32" height="8"/>
  <object id="119" x="256" y="472" width="64" height="8"/>
  <object id="120" x="256" y="352" width="8" height="120"/>
  <object id="121" x="0" y="344" width="264" height="8"/>
  <object id="122" x="0" y="256" width="8" height="88"/>
  <object id="123" x="0" y="248" width="448" height="8"/>
  <object id="125" x="440" y="160" width="8" height="88"/>
  <object id="126" x="256" y="152" width="192" height="8"/>
  <object id="127" x="256" y="32" width="8" height="120"/>
  <object id="145" name="ChemicalTank" type="ChemicalTank" x="416" y="32" width="32" height="33"/>
 </objectgroup>
 <objectgroup id="9" name="Props"/>
 <objectgroup id="7" name="Entities">
  <object id="53" name="Beartrap" type="Trap" gid="1380" x="319.862" y="392.584" width="32" height="32">
   <properties>
    <property name="Damage" type="float" value="40"/>
    <property name="Effect" type="object" value="58"/>
    <property name="RangeLayer" type="object" value="54"/>
   </properties>
  </object>
  <object id="58" name="ExplosionEffect" gid="1384" x="265.5" y="386.5" width="128" height="128"/>
  <object id="64" name="ScientistSpawn" type="Spawn" x="160" y="288">
   <ellipse/>
  </object>
  <object id="65" name="SnackMachine" type="SnackMachine" x="384" y="32" width="32" height="32"/>
  <object id="105" name="DoorSpawn" type="Door" x="576" y="224" width="32" height="32">
   <properties>
    <property name="DoorDirection" value="East"/>
   </properties>
  </object>
  <object id="106" name="DoorSpawn" type="Door" x="32" y="320" width="32" height="32">
   <properties>
    <property name="DoorDirection" value="West"/>
   </properties>
  </object>
  <object id="107" name="DoorSpawn" type="Door" x="320" y="0" width="32" height="32">
   <properties>
    <property name="DoorDirection" value="North"/>
   </properties>
  </object>
  <object id="108" name="DoorSpawn" type="Door" x="320" y="448" width="32" height="32">
   <properties>
    <property name="DoorDirection" value="South"/>
   </properties>
  </object>
  <object id="144" name="RobotSpawn" type="Spawner" x="464" y="80" width="25.3333" height="20">
   <ellipse/>
  </object>
  <object id="146" name="ScientistSpawn" type="Spawn" x="209" y="288">
   <ellipse/>
  </object>
  <object id="147" name="ScientistSpawn" type="Spawn" x="411" y="289">
   <ellipse/>
  </object>
 </objectgroup>
 <objectgroup id="8" name="Acids">
  <object id="129" x="288" y="320" width="32" height="64"/>
 </objectgroup>
</map>
