<?xml version="1.0" encoding="UTF-8"?>
<map version="1.10" tiledversion="1.11.2" orientation="orthogonal" renderorder="right-down" width="20" height="13" tilewidth="32" tileheight="32" infinite="0" nextlayerid="12" nextobjectid="186">
 <tileset firstgid="1" source="tileset_ebene1.tsx"/>
 <tileset firstgid="852" source="props_and_items_ebene2.tsx"/>
 <tileset firstgid="1380" source="Beartrap.tsx"/>
 <tileset firstgid="1384" source="ExplosionEffect.tsx"/>
 <layer id="3" name="floor" width="20" height="13">
  <data encoding="csv">
0,0,0,0,0,0,0,0,0,0,0,0,0,0,0,0,0,0,0,0,
72,107,72,72,72,72,72,0,0,0,107,70,70,70,70,72,71,72,72,72,
72,71,71,71,71,72,72,0,0,0,72,72,72,72,72,72,72,72,72,72,
72,71,71,71,71,72,72,0,0,0,72,72,72,72,72,72,72,72,107,72,
72,72,70,70,72,72,72,0,0,0,74,74,0,0,72,72,72,72,72,72,
0,72,0,107,72,72,72,0,0,0,72,72,0,0,72,72,72,0,0,0,
0,0,0,72,72,72,72,0,0,0,74,74,0,0,72,72,72,0,0,0,
0,0,0,72,72,72,72,0,0,0,72,72,0,0,72,72,72,0,0,0,
72,71,72,72,72,72,70,0,0,0,74,74,0,0,72,72,70,70,71,72,
72,72,72,72,70,107,72,72,72,72,72,72,0,0,72,107,72,72,107,72,
72,72,72,72,72,72,72,72,72,72,72,107,0,0,72,72,72,72,72,72,
70,70,107,72,72,72,72,107,72,72,72,72,0,0,72,72,72,72,72,72,
72,72,72,72,72,72,72,72,72,72,72,72,0,0,72,72,72,72,72,72
</data>
 </layer>
 <layer id="11" name="floorDecoration" width="20" height="13">
  <data encoding="csv">
0,0,0,0,0,0,0,0,0,0,0,0,0,0,0,0,0,0,0,0,
0,0,0,0,0,0,0,0,0,0,0,0,0,0,0,0,0,0,0,0,
0,0,0,0,0,0,0,0,0,0,0,0,0,0,0,0,0,0,0,0,
0,0,0,0,0,0,0,0,0,0,0,0,0,0,0,0,0,0,0,0,
0,0,0,0,0,0,0,0,0,0,0,0,0,0,0,0,0,0,0,0,
0,0,0,0,0,0,0,0,0,0,0,877,0,0,0,0,0,0,0,0,
0,0,0,0,0,0,0,0,0,0,0,0,0,0,0,0,0,0,0,0,
0,0,0,0,0,0,0,0,0,0,876,0,0,0,0,0,0,0,0,0,
0,0,0,0,0,0,0,0,0,0,0,0,0,0,0,0,0,0,0,0,
0,0,0,0,0,0,0,0,0,0,0,0,0,0,0,0,0,0,0,0,
0,0,0,0,0,0,0,0,0,0,0,0,0,0,0,0,0,0,0,0,
0,0,0,0,0,0,0,0,0,0,0,0,0,0,0,0,0,0,0,0,
0,0,0,0,0,0,0,0,0,0,0,0,0,0,0,0,0,0,0,0
</data>
 </layer>
 <layer id="1" name="walls" width="20" height="13">
  <data encoding="csv">
3,6,6,6,6,6,6,336,0,342,6,6,6,6,6,6,0,6,6,9,
76,0,0,0,0,0,0,76,0,84,0,0,0,0,0,0,0,0,0,84,
76,0,0,0,0,0,0,76,0,84,0,0,0,0,0,0,0,0,0,84,
76,0,0,0,0,0,0,76,0,84,0,0,3,6,336,0,0,0,0,84,
76,0,0,0,0,0,0,76,0,84,0,0,76,0,76,0,0,0,0,84,
335,0,9,0,0,0,0,76,0,84,0,0,76,0,76,0,0,39,6,379,
0,0,84,0,0,0,0,76,0,84,0,0,76,0,76,0,0,76,0,0,
39,376,379,0,0,0,0,76,0,84,0,0,76,0,76,0,0,335,0,47,
76,0,0,0,0,0,0,76,0,84,0,0,76,0,76,0,0,0,0,84,
76,0,0,0,0,0,0,373,6,379,0,0,76,0,76,0,0,0,0,84,
76,0,0,0,0,0,0,0,0,0,0,0,76,0,76,0,0,0,0,84,
76,0,0,0,0,0,0,0,0,0,0,0,76,0,76,0,0,0,0,84,
373,376,376,376,376,379,0,376,376,376,376,376,40,0,373,376,376,376,376,379
</data>
 </layer>
 <layer id="10" name="props" width="20" height="13">
  <data encoding="csv">
0,0,0,0,0,0,0,0,0,0,0,0,0,0,0,0,0,0,0,0,
0,0,0,0,0,0,0,0,0,0,0,0,0,0,0,0,0,0,1092,0,
0,0,0,910,0,0,0,0,0,0,0,0,0,0,0,0,0,0,1116,0,
0,0,0,0,0,0,0,0,0,0,0,0,0,0,0,0,0,1092,1092,0,
0,0,0,0,0,0,0,0,0,0,0,0,0,0,0,0,0,1116,1116,0,
0,0,0,0,0,0,0,0,0,0,0,0,0,0,0,0,0,0,0,0,
0,0,0,0,0,0,0,0,0,0,0,0,0,0,0,0,0,0,0,0,
0,0,0,0,0,0,0,0,0,0,0,0,0,0,0,0,0,0,0,0,
0,0,0,0,0,0,0,0,0,0,0,0,0,0,0,0,0,0,0,0,
0,0,0,0,0,0,0,0,0,0,0,0,0,0,0,0,0,0,0,0,
0,0,0,0,0,0,0,0,0,0,0,0,0,0,0,0,0,0,0,0,
0,0,0,0,0,0,0,0,0,0,0,0,0,0,0,0,0,0,0,0,
0,0,0,0,0,0,0,0,0,0,0,0,0,0,0,0,0,0,0,0
</data>
 </layer>
 <objectgroup id="6" name="Collisions">
  <object id="137" x="0" y="24" width="232" height="8"/>
  <object id="138" x="224" y="32" width="8" height="280"/>
  <object id="139" x="224" y="312" width="96" height="8"/>
  <object id="140" x="312" y="32" width="8" height="280"/>
  <object id="141" x="312" y="24" width="200" height="8"/>
  <object id="142" x="544" y="24" width="96" height="8"/>
  <object id="143" x="632" y="32" width="8" height="152"/>
  <object id="144" x="544" y="184" width="96" height="8"/>
  <object id="145" x="544" y="192" width="8" height="56"/>
  <object id="148" x="544" y="248" width="32" height="8"/>
  <object id="149" x="608" y="248" width="32" height="8"/>
  <object id="150" x="632" y="256" width="8" height="152"/>
  <object id="151" x="448" y="408" width="192" height="8"/>
  <object id="152" x="448" y="128" width="8" height="280"/>
  <object id="153" x="384" y="120" width="72" height="8"/>
  <object id="154" x="384" y="128" width="8" height="280"/>
  <object id="155" x="224" y="408" width="168" height="8"/>
  <object id="156" x="0" y="408" width="192" height="8"/>
  <object id="157" x="0" y="256" width="8" height="152"/>
  <object id="158" x="0" y="248" width="96" height="8"/>
  <object id="160" x="88" y="192" width="8" height="56"/>
  <object id="161" x="0" y="184" width="96" height="8"/>
  <object id="162" x="0" y="32" width="8" height="152"/>
  <object id="168" x="550" y="138" width="21" height="10"/>
  <object id="169" x="582" y="138" width="21" height="10"/>
  <object id="171" x="582" y="74" width="21" height="10"/>
  <object id="174" x="100" y="82" width="25" height="10"/>
 </objectgroup>
 <objectgroup id="9" name="Props"/>
 <objectgroup id="7" name="Entities">
  <object id="175" name="DoorSpawn" type="Door" x="512" y="0" width="32" height="32">
   <properties>
    <property name="DoorDirection" value="North"/>
   </properties>
  </object>
  <object id="177" name="DoorSpawn" type="Door" x="576" y="224" width="32" height="32">
   <properties>
    <property name="DoorDirection" value="East"/>
   </properties>
  </object>
  <object id="178" name="DoorSpawn" type="Door" x="192" y="384" width="32" height="32">
   <properties>
    <property name="DoorDirection" value="South"/>
   </properties>
  </object>
  <object id="179" name="DoorSpawn" type="Door" x="32" y="160" width="32" height="32">
   <properties>
    <property name="DoorDirection" value="West"/>
   </properties>
  </object>
  <object id="180" name="SnackMachine" type="SnackMachine" x="64" y="64" width="32" height="32"/>
  <object id="184" name="ChemicalTank" type="ChemicalTank" x="545" y="62" width="32" height="33"/>
  <object id="181" name="ScientistSpawn" type="Spawn" x="172.293" y="96.7927">
   <ellipse/>
  </object>
  <object id="182" name="ScientistSpawn" type="Spawn" x="524" y="345">
   <ellipse/>
  </object>
  <object id="183" name="ScientistSpawn" type="Spawn" x="342" y="227">
   <ellipse/>
  </object>
	 <object id="183" name="ScientistSpawn" type="Spawn" x="175" y="96.7927">
		 <ellipse/>
	 </object>
  <object id="185" name="SecuritySpawn" type="Spawn" x="61.244" y="309.136">
   <ellipse/>
  </object>
 </objectgroup>
 <objectgroup id="8" name="Acids"/>
</map>
